AlessandroW/has-evalvm/logfiles/player_1000_1_parkour_panda_2018-01-21-15.14.19_13345_140351615757712.log
#ts enqueued_b enqueued_t,visible=1,subplot=2 bwe,visible=1,subplot=1 cur,visible=1,subplot=1 level,visible=1,subplot=3 max_level player_status,visible=1,subplot=3 paused_time downloaded_bytes cpu,visible=1,subplot=4 mem,visible=1,subplot=5 rss vms ts_start_req ts_stop_req q0,visible=0 q1,visible=0 q2,visible=0 q3,visible=0 q4,visible=0 q5,visible=0
1516547659.38 0 0.000 0.000 78500 0 5 0 0.212 0 0.000 7.368 37695488.000 341409792.000 1516547659.275 -1.000 78500 116000 216000 316000 616000 1216000
1516547659.48 0 0.000 0.000 78500 0 5 1 0.313 0 10.000 7.383 37875712.000 341553152.000 1516547659.275 -1.000 78500 116000 216000 316000 616000 1216000
1516547659.58 0 0.000 0.000 78500 0 5 0 0.313 0 0.000 7.384 37933056.000 341553152.000 1516547659.275 -1.000 78500 116000 216000 316000 616000 1216000
1516547659.69 0 0.000 0.000 78500 0 5 1 0.415 0 10.000 7.392 37933056.000 341553152.000 1516547659.275 -1.000 78500 116000 216000 316000 616000 1216000
1516547659.79 0 0.000 0.000 78500 0 5 0 0.415 0 0.000 7.392 37974016.000 341553152.000 1516547659.275 -1.000 78500 116000 216000 316000 616000 1216000
1516547659.89 0 0.000 0.000 78500 0 5 1 0.517 0 0.000 7.397 37974016.000 341696512.000 1516547659.275 -1.000 78500 116000 216000 316000 616000 1216000
1516547659.99 0 0.000 0.000 78500 0 5 0 0.517 0 9.091 7.405 37998592.000 341696512.000 1516547659.275 -1.000 78500 116000 216000 316000 616000 1216000
1516547660.09 0 0.000 0.000 78500 0 5 1 0.617 0 0.000 7.405 38039552.000 341696512.000 1516547659.275 -1.000 78500 116000 216000 316000 616000 1216000
1516547660.20 0 0.000 0.000 78500 0 5 0 0.617 0 0.000 7.409 38043648.000 341696512.000 1516547659.275 -1.000 78500 116000 216000 316000 616000 1216000
1516547660.30 0 0.000 0.000 78500 0 5 1 0.719 0 0.000 7.409 38064128.000 341696512.000 1516547659.275 -1.000 78500 116000 216000 316000 616000 1216000
1516547660.40 0 0.000 0.000 78500 0 5 0 0.719 0 10.000 7.414 38064128.000 341696512.000 1516547659.275 -1.000 78500 116000 216000 316000 616000 1216000
1516547660.50 0 0.000 0.000 78500 0 5 1 0.821 0 0.000 7.418 38088704.000 341696512.000 1516547659.275 -1.000 78500 116000 216000 316000 616000 1216000
1516547660.60 0 0.000 0.000 78500 0 5 0 0.821 0 0.000 7.418 38109184.000 341696512.000 1516547659.275 -1.000 78500 116000 216000 316000 616000 1216000
1516547660.70 136965 3.920 110697.767 78500 0 5 1 0.922 153784 9.091 7.508 38375424.000 341934080.000 1516547660.673 1516547660.665 78500 116000 216000 316000 616000 1216000
1516547660.81 135869 3.800 110697.767 78500 0 5 1 0.922 153784 0.000 7.508 38572032.000 341934080.000 1516547660.673 1516547660.665 78500 116000 216000 316000 616000 1216000
1516547660.91 135780 3.640 110697.767 78500 0 5 1 0.922 153784 10.000 7.508 38572032.000 341934080.000 1516547660.673 1516547660.665 78500 116000 216000 316000 616000 1216000
1516547661.01 135780 3.640 110697.767 78500 0 5 1 0.922 153784 9.091 7.508 38572032.000 341934080.000 1516547660.673 1516547660.665 78500 116000 216000 316000 616000 1216000
1516547661.11 135688 3.520 110697.767 78500 0 5 1 0.922 153784 0.000 7.508 38572032.000 341934080.000 1516547660.673 1516547660.665 78500 116000 216000 316000 616000 1216000
1516547661.22 135524 3.360 110697.767 78500 0 5 1 0.922 153784 10.000 7.508 38572032.000 341934080.000 1516547660.673 1516547660.665 78500 116000 216000 316000 616000 1216000
1516547661.32 135524 3.360 110697.767 78500 0 5 1 0.922 153784 0.000 7.508 38572032.000 341934080.000 1516547660.673 1516547660.665 78500 116000 216000 316000 616000 1216000
1516547661.42 135319 3.200 110697.767 78500 0 5 1 0.922 153784 0.000 7.511 38572032.000 341934080.000 1516547660.673 1516547660.665 78500 116000 216000 316000 616000 1216000
1516547661.52 135097 3.080 110697.767 78500 0 5 1 0.922 153784 0.000 7.511 38584320.000 341934080.000 1516547660.673 1516547660.665 78500 116000 216000 316000 616000 1216000
1516547661.63 134944 2.920 110697.767 78500 0 5 1 0.922 153784 0.000 7.511 38584320.000 341934080.000 1516547660.673 1516547660.665 78500 116000 216000 316000 616000 1216000
1516547661.73 134944 2.920 110697.767 78500 0 5 1 0.922 153784 10.000 7.511 38588416.000 341934080.000 1516547660.673 1516547660.665 78500 116000 216000 316000 616000 1216000
1516547661.83 134699 2.760 110697.767 78500 0 5 1 0.922 153784 0.000 7.511 38588416.000 341934080.000 1516547660.673 1516547660.665 78500 116000 216000 316000 616000 1216000
1516547661.93 260245 6.640 112813.757 78500 0 5 1 0.922 294596 9.091 7.617 39129088.000 341934080.000 1516547661.931 1516547661.921 78500 116000 216000 316000 616000 1216000
1516547662.03 260245 6.640 112813.757 78500 0 5 1 0.922 294596 0.000 7.617 39133184.000 341934080.000 1516547661.931 1516547661.921 78500 116000 216000 316000 616000 1216000
1516547662.14 258676 6.480 112813.757 78500 0 5 1 0.922 294596 10.000 7.617 39133184.000 341934080.000 1516547661.931 1516547661.921 78500 116000 216000 316000 616000 1216000
1516547662.24 258676 6.480 112813.757 78500 0 5 1 0.922 294596 0.000 7.617 39133184.000 341934080.000 1516547661.931 1516547661.921 78500 116000 216000 316000 616000 1216000
1516547662.34 247387 6.360 112813.757 78500 0 5 1 0.922 294596 0.000 7.617 39133184.000 341934080.000 1516547661.931 1516547661.921 78500 116000 216000 316000 616000 1216000
1516547662.44 240253 6.280 112813.757 78500 0 5 1 0.922 294596 10.000 7.617 39133184.000 341934080.000 1516547661.931 1516547661.921 78500 116000 216000 316000 616000 1216000
1516547662.54 227305 6.160 112813.757 78500 0 5 1 0.922 294596 0.000 7.617 39133184.000 341934080.000 1516547661.931 1516547661.921 78500 116000 216000 316000 616000 1216000
1516547662.64 216807 6.080 112813.757 78500 0 5 1 0.922 294596 0.000 7.617 39133184.000 341934080.000 1516547661.931 1516547661.921 78500 116000 216000 316000 616000 1216000
1516547662.75 197510 5.920 112813.757 78500 0 5 1 0.922 294596 0.000 7.617 39133184.000 341934080.000 1516547661.931 1516547661.921 78500 116000 216000 316000 616000 1216000
1516547662.85 187491 5.840 112813.757 78500 0 5 1 0.922 294596 10.000 7.617 39133184.000 341934080.000 1516547661.931 1516547661.921 78500 116000 216000 316000 616000 1216000
1516547662.95 181776 5.760 112813.757 78500 0 5 1 0.922 294596 0.000 7.617 39133184.000 341934080.000 1516547661.931 1516547661.921 78500 116000 216000 316000 616000 1216000
1516547663.05 253242 9.600 88118.280 78500 0 5 1 0.922 385964 10.000 7.617 39133184.000 341934080.000 1516547662.973 1516547662.968 78500 116000 216000 316000 616000 1216000
1516547663.16 248663 9.520 88118.280 78500 0 5 1 0.922 385964 0.000 7.617 39133184.000 341934080.000 1516547662.973 1516547662.968 78500 116000 216000 316000 616000 1216000
1516547663.26 246419 9.360 88118.280 78500 0 5 1 0.922 385964 10.000 7.618 39133184.000 341934080.000 1516547662.973 1516547662.968 78500 116000 216000 316000 616000 1216000
1516547663.36 243786 9.320 88118.280 78500 0 5 1 0.922 385964 10.000 7.619 39137280.000 341934080.000 1516547662.973 1516547662.968 78500 116000 216000 316000 616000 1216000
1516547663.46 239361 9.120 88118.280 78500 0 5 1 0.922 385964 0.000 7.619 39141376.000 341934080.000 1516547662.973 1516547662.968 78500 116000 216000 316000 616000 1216000
1516547663.56 239361 9.120 88118.280 78500 0 5 1 0.922 385964 0.000 7.619 39141376.000 341934080.000 1516547662.973 1516547662.968 78500 116000 216000 316000 616000 1216000
1516547663.67 236621 8.960 88118.280 78500 0 5 1 0.922 385964 0.000 7.619 39141376.000 341934080.000 1516547662.973 1516547662.968 78500 116000 216000 316000 616000 1216000
1516547663.77 234393 8.920 88118.280 78500 0 5 1 0.922 385964 10.000 7.619 39141376.000 341934080.000 1516547662.973 1516547662.968 78500 116000 216000 316000 616000 1216000
1516547663.87 232843 8.800 88118.280 78500 0 5 1 0.922 385964 0.000 7.619 39141376.000 341934080.000 1516547662.973 1516547662.968 78500 116000 216000 316000 616000 1216000
1516547663.98 230506 8.680 88118.280 78500 0 5 1 0.922 385964 10.000 7.619 39141376.000 341934080.000 1516547662.973 1516547662.968 78500 116000 216000 316000 616000 1216000
1516547664.08 229703 8.520 88118.280 78500 0 5 1 0.922 385964 0.000 7.619 39141376.000 341934080.000 1516547662.973 1516547662.968 78500 116000 216000 316000 616000 1216000
1516547664.18 229421 8.480 88118.280 78500 0 5 1 0.922 385964 0.000 7.619 39141376.000 341934080.000 1516547662.973 1516547662.968 78500 116000 216000 316000 616000 1216000
1516547664.28 229102 8.320 88118.280 78500 0 5 1 0.922 385964 10.000 7.619 39141376.000 341934080.000 1516547662.973 1516547662.968 78500 116000 216000 316000 616000 1216000
1516547664.38 212634 8.160 88118.280 78500 0 5 1 0.922 385964 0.000 7.619 39141376.000 341934080.000 1516547662.973 1516547662.968 78500 116000 216000 316000 616000 1216000
1516547664.49 212634 8.160 88118.280 78500 0 5 1 0.922 385964 0.000 7.619 39141376.000 341934080.000 1516547662.973 1516547662.968 78500 116000 216000 316000 616000 1216000
1516547664.59 208469 8.040 88118.280 78500 0 5 1 0.922 385964 0.000 7.619 39141376.000 341934080.000 1516547662.973 1516547662.968 78500 116000 216000 316000 616000 1216000
1516547664.69 369209 12.000 110170.123 78500 0 5 1 0.922 567760 9.091 7.701 39411712.000 342085632.000 1516547664.632 1516547664.623 78500 116000 216000 316000 616000 1216000
1516547664.79 344798 11.800 110170.123 78500 0 5 1 0.922 567760 10.000 7.701 39563264.000 342085632.000 1516547664.632 1516547664.623 78500 116000 216000 316000 616000 1216000
1516547664.90 344798 11.800 110170.123 78500 0 5 1 0.922 567760 0.000 7.701 39563264.000 342085632.000 1516547664.632 1516547664.623 78500 116000 216000 316000 616000 1216000
1516547665.00 340168 11.640 110170.123 78500 0 5 1 0.922 567760 0.000 7.701 39563264.000 342085632.000 1516547664.632 1516547664.623 78500 116000 216000 316000 616000 1216000
1516547665.10 335508 11.480 110170.123 78500 0 5 1 0.922 567760 10.000 7.701 39563264.000 342085632.000 1516547664.632 1516547664.623 78500 116000 216000 316000 616000 1216000
1516547665.20 335508 11.480 110170.123 78500 0 5 1 0.922 567760 0.000 7.702 39563264.000 342085632.000 1516547664.632 1516547664.623 78500 116000 216000 316000 616000 1216000
1516547665.31 332398 11.360 110170.123 78500 0 5 1 0.922 567760 0.000 7.702 39567360.000 342085632.000 1516547664.632 1516547664.623 78500 116000 216000 316000 616000 1216000
1516547665.41 330180 11.240 110170.123 78500 0 5 1 0.922 567760 0.000 7.702 39567360.000 342085632.000 1516547664.632 1516547664.623 78500 116000 216000 316000 616000 1216000
1516547665.51 327471 11.080 110170.123 78500 0 5 1 0.922 567760 10.000 7.702 39567360.000 342085632.000 1516547664.632 1516547664.623 78500 116000 216000 316000 616000 1216000
1516547665.61 327471 11.080 110170.123 78500 0 5 1 0.922 567760 0.000 7.702 39567360.000 342085632.000 1516547664.632 1516547664.623 78500 116000 216000 316000 616000 1216000
1516547665.71 324215 10.920 110170.123 78500 0 5 1 0.922 567760 0.000 7.702 39567360.000 342085632.000 1516547664.632 1516547664.623 78500 116000 216000 316000 616000 1216000
1516547665.82 321183 10.800 110170.123 78500 0 5 1 0.922 567760 10.000 7.702 39567360.000 342085632.000 1516547664.632 1516547664.623 78500 116000 216000 316000 616000 1216000
1516547665.92 321183 10.800 110170.123 78500 0 5 1 0.922 567760 0.000 7.702 39567360.000 342085632.000 1516547664.632 1516547664.623 78500 116000 216000 316000 616000 1216000
1516547666.02 318944 10.680 110170.123 78500 0 5 1 0.922 567760 0.000 7.702 39567360.000 342085632.000 1516547664.632 1516547664.623 78500 116000 216000 316000 616000 1216000
1516547666.12 316565 10.520 110170.123 78500 0 5 1 0.922 567760 10.000 7.702 39567360.000 342085632.000 1516547664.632 1516547664.623 78500 116000 216000 316000 616000 1216000
1516547666.22 313688 10.400 110170.123 78500 0 5 1 0.922 567760 0.000 7.702 39567360.000 342085632.000 1516547664.632 1516547664.623 78500 116000 216000 316000 616000 1216000
1516547666.33 313688 10.400 110170.123 78500 0 5 1 0.922 567760 0.000 7.702 39567360.000 342085632.000 1516547664.632 1516547664.623 78500 116000 216000 316000 616000 1216000
1516547666.43 311001 10.280 110170.123 78500 0 5 1 0.922 567760 0.000 7.702 39567360.000 342085632.000 1516547664.632 1516547664.623 78500 116000 216000 316000 616000 1216000
1516547666.53 308676 10.120 110170.123 78500 0 5 1 0.922 567760 20.000 7.702 39567360.000 342085632.000 1516547664.632 1516547664.623 78500 116000 216000 316000 616000 1216000
1516547666.63 305639 9.960 110170.123 78500 0 5 1 0.922 567760 0.000 7.702 39567360.000 342085632.000 1516547664.632 1516547664.623 78500 116000 216000 316000 616000 1216000
1516547666.73 305639 9.960 110170.123 78500 0 5 1 0.922 567760 0.000 7.702 39567360.000 342085632.000 1516547664.632 1516547664.623 78500 116000 216000 316000 616000 1216000
1516547666.84 302718 9.800 110170.123 78500 0 5 1 0.922 567760 0.000 7.702 39567360.000 342085632.000 1516547664.632 1516547664.623 78500 116000 216000 316000 616000 1216000
1516547666.94 291572 9.640 110170.123 78500 0 5 1 0.922 567760 10.000 7.702 39567360.000 342085632.000 1516547664.632 1516547664.623 78500 116000 216000 316000 616000 1216000
1516547667.04 291572 9.640 110170.123 78500 0 5 1 0.922 567760 0.000 7.702 39567360.000 342085632.000 1516547664.632 1516547664.623 78500 116000 216000 316000 616000 1216000
1516547667.14 286797 9.480 110170.123 78500 0 5 1 0.922 567760 0.000 7.702 39567360.000 342085632.000 1516547664.632 1516547664.623 78500 116000 216000 316000 616000 1216000
1516547667.25 286797 9.480 110170.123 78500 0 5 1 0.922 567760 0.000 7.702 39567360.000 342085632.000 1516547664.632 1516547664.623 78500 116000 216000 316000 616000 1216000
1516547667.35 283453 9.320 110170.123 78500 0 5 1 0.922 567760 10.000 7.702 39567360.000 342085632.000 1516547664.632 1516547664.623 78500 116000 216000 316000 616000 1216000
1516547667.45 280110 9.280 110170.123 78500 0 5 1 0.922 567760 0.000 7.702 39567360.000 342085632.000 1516547664.632 1516547664.623 78500 116000 216000 316000 616000 1216000
1516547667.55 278198 9.160 110170.123 78500 0 5 1 0.922 567760 0.000 7.702 39567360.000 342085632.000 1516547664.632 1516547664.623 78500 116000 216000 316000 616000 1216000
1516547667.65 274794 9.040 110170.123 78500 0 5 1 0.922 567760 0.000 7.702 39567360.000 342085632.000 1516547664.632 1516547664.623 78500 116000 216000 316000 616000 1216000
1516547667.76 271743 8.880 110170.123 78500 0 5 1 0.922 567760 10.000 7.702 39567360.000 342085632.000 1516547664.632 1516547664.623 78500 116000 216000 316000 616000 1216000
1516547667.86 267814 8.720 110170.123 78500 0 5 1 0.922 567760 0.000 7.702 39567360.000 342085632.000 1516547664.632 1516547664.623 78500 116000 216000 316000 616000 1216000
1516547667.96 267814 8.720 110170.123 78500 0 5 1 0.922 567760 10.000 7.702 39567360.000 342085632.000 1516547664.632 1516547664.623 78500 116000 216000 316000 616000 1216000
1516547668.06 483219 12.480 70518.891 78500 0 5 1 0.922 803700 0.000 7.770 39837696.000 342085632.000 1516547667.982 1516547667.978 78500 116000 216000 316000 616000 1216000
1516547668.16 483219 12.480 70518.891 78500 0 5 1 0.922 803700 0.000 7.770 39915520.000 342085632.000 1516547667.982 1516547667.978 78500 116000 216000 316000 616000 1216000
1516547668.27 477513 12.320 70518.891 78500 0 5 1 0.922 803700 0.000 7.770 39915520.000 342085632.000 1516547667.982 1516547667.978 78500 116000 216000 316000 616000 1216000
1516547668.37 477513 12.320 70518.891 78500 0 5 1 0.922 803700 10.000 7.770 39915520.000 342085632.000 1516547667.982 1516547667.978 78500 116000 216000 316000 616000 1216000
1516547668.47 472371 12.160 70518.891 78500 0 5 1 0.922 803700 0.000 7.770 39915520.000 342085632.000 1516547667.982 1516547667.978 78500 116000 216000 316000 616000 1216000
1516547668.57 466638 12.000 70518.891 78500 0 5 1 0.922 803700 0.000 7.770 39915520.000 342085632.000 1516547667.982 1516547667.978 78500 116000 216000 316000 616000 1216000
1516547668.68 466638 12.000 70518.891 78500 0 5 1 0.922 803700 0.000 7.770 39915520.000 342085632.000 1516547667.982 1516547667.978 78500 116000 216000 316000 616000 1216000
1516547668.78 449492 11.760 70518.891 78500 0 5 1 0.922 803700 10.000 7.770 39915520.000 342085632.000 1516547667.982 1516547667.978 78500 116000 216000 316000 616000 1216000
1516547668.88 537503 15.800 119994.271 78500 0 5 1 0.922 905408 10.000 7.823 40185856.000 342085632.000 1516547668.839 1516547668.829 78500 116000 216000 316000 616000 1216000
1516547668.98 532023 15.640 119994.271 78500 0 5 1 0.922 905408 0.000 7.823 40189952.000 342085632.000 1516547668.839 1516547668.829 78500 116000 216000 316000 616000 1216000
1516547669.08 532023 15.640 119994.271 78500 0 5 1 0.922 905408 0.000 7.823 40189952.000 342085632.000 1516547668.839 1516547668.829 78500 116000 216000 316000 616000 1216000
1516547669.19 526962 15.520 119994.271 78500 0 5 1 0.922 905408 0.000 7.823 40189952.000 342085632.000 1516547668.839 1516547668.829 78500 116000 216000 316000 616000 1216000
1516547669.29 510716 15.440 119994.271 78500 0 5 1 0.922 905408 10.000 7.823 40189952.000 342085632.000 1516547668.839 1516547668.829 78500 116000 216000 316000 616000 1216000
1516547669.39 509482 15.280 119994.271 78500 0 5 1 0.922 905408 0.000 7.823 40189952.000 342085632.000 1516547668.839 1516547668.829 78500 116000 216000 316000 616000 1216000
1516547669.49 507718 15.120 119994.271 78500 0 5 1 0.922 905408 0.000 7.823 40189952.000 342085632.000 1516547668.839 1516547668.829 78500 116000 216000 316000 616000 1216000
1516547669.59 507718 15.120 119994.271 78500 0 5 1 0.922 905408 10.000 7.823 40189952.000 342085632.000 1516547668.839 1516547668.829 78500 116000 216000 316000 616000 1216000
1516547669.70 506757 14.960 119994.271 78500 0 5 1 0.922 905408 0.000 7.823 40189952.000 342085632.000 1516547668.839 1516547668.829 78500 116000 216000 316000 616000 1216000
1516547669.80 505297 14.800 119994.271 78500 0 5 1 0.922 905408 10.000 7.823 40189952.000 342085632.000 1516547668.839 1516547668.829 78500 116000 216000 316000 616000 1216000
1516547669.90 505297 14.800 119994.271 78500 0 5 1 0.922 905408 0.000 7.823 40189952.000 342085632.000 1516547668.839 1516547668.829 78500 116000 216000 316000 616000 1216000
1516547670.00 586146 18.680 89157.338 78500 0 5 1 0.922 1004484 9.091 7.877 40460288.000 342085632.000 1516547669.960 1516547669.950 78500 116000 216000 316000 616000 1216000
1516547670.10 583618 18.520 89157.338 78500 0 5 1 0.922 1004484 0.000 7.877 40464384.000 342085632.000 1516547669.960 1516547669.950 78500 116000 216000 316000 616000 1216000
1516547670.21 583618 18.520 89157.338 78500 0 5 1 0.922 1004484 0.000 7.877 40464384.000 342085632.000 1516547669.960 1516547669.950 78500 116000 216000 316000 616000 1216000
1516547670.31 581321 18.400 89157.338 78500 0 5 1 0.922 1004484 0.000 7.877 40464384.000 342085632.000 1516547669.960 1516547669.950 78500 116000 216000 316000 616000 1216000
1516547670.41 580244 18.240 89157.338 78500 0 5 1 0.922 1004484 10.000 7.877 40464384.000 342085632.000 1516547669.960 1516547669.950 78500 116000 216000 316000 616000 1216000
1516547670.51 579406 18.080 89157.338 78500 0 5 1 0.922 1004484 0.000 7.877 40468480.000 342085632.000 1516547669.960 1516547669.950 78500 116000 216000 316000 616000 1216000
1516547670.62 579406 18.080 89157.338 78500 0 5 1 0.922 1004484 0.000 7.877 40468480.000 342085632.000 1516547669.960 1516547669.950 78500 116000 216000 316000 616000 1216000
1516547670.72 578579 17.960 89157.338 78500 0 5 1 0.922 1004484 10.000 7.877 40468480.000 342085632.000 1516547669.960 1516547669.950 78500 116000 216000 316000 616000 1216000
1516547670.82 577579 17.840 89157.338 78500 0 5 1 0.922 1004484 0.000 7.877 40468480.000 342085632.000 1516547669.960 1516547669.950 78500 116000 216000 316000 616000 1216000
1516547670.92 575570 17.680 89157.338 78500 0 5 1 0.922 1004484 0.000 7.877 40468480.000 342085632.000 1516547669.960 1516547669.950 78500 116000 216000 316000 616000 1216000
1516547671.02 575570 17.680 89157.338 78500 0 5 1 0.922 1004484 9.091 7.877 40468480.000 342085632.000 1516547669.960 1516547669.950 78500 116000 216000 316000 616000 1216000
1516547671.13 574162 17.520 89157.338 78500 0 5 1 0.922 1004484 10.000 7.877 40468480.000 342085632.000 1516547669.960 1516547669.950 78500 116000 216000 316000 616000 1216000
1516547671.23 670658 21.320 89100.741 78500 0 5 1 0.922 1115216 10.000 7.983 41009152.000 342085632.000 1516547671.212 1516547671.203 78500 116000 216000 316000 616000 1216000
1516547671.33 670658 21.320 89100.741 78500 0 5 1 0.922 1115216 0.000 7.983 41013248.000 342085632.000 1516547671.212 1516547671.203 78500 116000 216000 316000 616000 1216000
1516547671.43 668216 21.160 89100.741 78500 0 5 1 0.922 1115216 0.000 7.983 41013248.000 342085632.000 1516547671.212 1516547671.203 78500 116000 216000 316000 616000 1216000
1516547671.53 666528 21.040 89100.741 78500 0 5 1 0.922 1115216 10.000 7.983 41013248.000 342085632.000 1516547671.212 1516547671.203 78500 116000 216000 316000 616000 1216000
1516547671.64 666528 21.040 89100.741 78500 0 5 1 0.922 1115216 0.000 7.983 41013248.000 342085632.000 1516547671.212 1516547671.203 78500 116000 216000 316000 616000 1216000
1516547671.74 664822 20.880 89100.741 78500 0 5 1 0.922 1115216 0.000 7.983 41013248.000 342085632.000 1516547671.212 1516547671.203 78500 116000 216000 316000 616000 1216000
1516547671.84 663312 20.720 89100.741 78500 0 5 1 0.922 1115216 0.000 7.983 41013248.000 342085632.000 1516547671.212 1516547671.203 78500 116000 216000 316000 616000 1216000
1516547671.94 663312 20.720 89100.741 78500 0 5 1 0.922 1115216 9.091 7.983 41013248.000 342085632.000 1516547671.212 1516547671.203 78500 116000 216000 316000 616000 1216000
1516547672.05 661601 20.560 89100.741 78500 0 5 1 0.922 1115216 0.000 7.983 41013248.000 342085632.000 1516547671.212 1516547671.203 78500 116000 216000 316000 616000 1216000
1516547672.15 659693 20.440 89100.741 78500 0 5 1 0.922 1115216 0.000 7.983 41013248.000 342085632.000 1516547671.212 1516547671.203 78500 116000 216000 316000 616000 1216000
1516547672.25 659693 20.440 89100.741 78500 0 5 1 0.922 1115216 0.000 7.983 41013248.000 342085632.000 1516547671.212 1516547671.203 78500 116000 216000 316000 616000 1216000
1516547672.35 754458 24.280 102706.036 78500 0 5 1 0.922 1226324 9.091 8.037 41283584.000 342085632.000 1516547672.303 1516547672.293 78500 116000 216000 316000 616000 1216000
1516547672.45 753001 24.120 102706.036 78500 0 5 1 0.922 1226324 10.000 8.037 41287680.000 342085632.000 1516547672.303 1516547672.293 78500 116000 216000 316000 616000 1216000
1516547672.56 753001 24.120 102706.036 78500 0 5 1 0.922 1226324 0.000 8.037 41287680.000 342085632.000 1516547672.303 1516547672.293 78500 116000 216000 316000 616000 1216000
1516547672.66 751325 23.960 102706.036 78500 0 5 1 0.922 1226324 0.000 8.037 41287680.000 342085632.000 1516547672.303 1516547672.293 78500 116000 216000 316000 616000 1216000
1516547672.76 747736 23.920 102706.036 78500 0 5 1 0.922 1226324 10.000 8.037 41287680.000 342085632.000 1516547672.303 1516547672.293 78500 116000 216000 316000 616000 1216000
1516547672.86 721089 23.800 102706.036 78500 0 5 1 0.922 1226324 0.000 8.037 41287680.000 342085632.000 1516547672.303 1516547672.293 78500 116000 216000 316000 616000 1216000
1516547672.97 719797 23.680 102706.036 78500 0 5 1 0.922 1226324 0.000 8.037 41287680.000 342085632.000 1516547672.303 1516547672.293 78500 116000 216000 316000 616000 1216000
1516547673.07 718223 23.560 102706.036 78500 0 5 1 0.922 1226324 0.000 8.037 41287680.000 342085632.000 1516547672.303 1516547672.293 78500 116000 216000 316000 616000 1216000
1516547673.17 716868 23.400 102706.036 78500 0 5 1 0.922 1226324 9.091 8.037 41287680.000 342085632.000 1516547672.303 1516547672.293 78500 116000 216000 316000 616000 1216000
1516547673.27 716868 23.400 102706.036 78500 0 5 1 0.922 1226324 0.000 8.037 41287680.000 342085632.000 1516547672.303 1516547672.293 78500 116000 216000 316000 616000 1216000
1516547673.38 715693 23.240 102706.036 78500 0 5 1 0.922 1226324 0.000 8.037 41287680.000 342085632.000 1516547672.303 1516547672.293 78500 116000 216000 316000 616000 1216000
1516547673.48 714698 23.080 102706.036 78500 0 5 1 0.922 1226324 0.000 8.037 41287680.000 342085632.000 1516547672.303 1516547672.293 78500 116000 216000 316000 616000 1216000
1516547673.58 714698 23.080 102706.036 78500 0 5 1 0.922 1226324 10.000 8.037 41287680.000 342085632.000 1516547672.303 1516547672.293 78500 116000 216000 316000 616000 1216000
1516547673.68 714092 22.920 102706.036 78500 0 5 1 0.922 1226324 9.091 8.037 41287680.000 342085632.000 1516547672.303 1516547672.293 78500 116000 216000 316000 616000 1216000
1516547673.79 713527 22.760 102706.036 78500 0 5 1 0.922 1226324 0.000 8.037 41287680.000 342085632.000 1516547672.303 1516547672.293 78500 116000 216000 316000 616000 1216000
1516547673.89 713527 22.760 102706.036 78500 0 5 1 0.922 1226324 10.000 8.037 41287680.000 342085632.000 1516547672.303 1516547672.293 78500 116000 216000 316000 616000 1216000
1516547673.99 713077 22.560 102706.036 78500 0 5 1 0.922 1226324 0.000 8.037 41287680.000 342085632.000 1516547672.303 1516547672.293 78500 116000 216000 316000 616000 1216000
1516547674.09 713077 22.560 102706.036 78500 0 5 1 0.922 1226324 0.000 8.037 41287680.000 342085632.000 1516547672.303 1516547672.293 78500 116000 216000 316000 616000 1216000
1516547674.20 878916 26.400 106107.419 78500 0 5 1 0.922 1416392 10.000 8.089 41558016.000 342085632.000 1516547674.103 1516547674.094 78500 116000 216000 316000 616000 1216000
1516547674.30 865904 26.240 106107.419 78500 0 5 1 0.922 1416392 10.000 8.089 41558016.000 342085632.000 1516547674.103 1516547674.094 78500 116000 216000 316000 616000 1216000
1516547674.40 865904 26.240 106107.419 78500 0 5 1 0.922 1416392 0.000 8.089 41558016.000 342085632.000 1516547674.103 1516547674.094 78500 116000 216000 316000 616000 1216000
1516547674.50 853974 26.080 106107.419 78500 0 5 1 0.922 1416392 0.000 8.089 41558016.000 342085632.000 1516547674.103 1516547674.094 78500 116000 216000 316000 616000 1216000
1516547674.60 853974 26.080 106107.419 78500 0 5 1 0.922 1416392 0.000 8.090 41562112.000 342085632.000 1516547674.103 1516547674.094 78500 116000 216000 316000 616000 1216000
1516547674.71 849057 25.920 106107.419 78500 0 5 1 0.922 1416392 10.000 8.090 41562112.000 342085632.000 1516547674.103 1516547674.094 78500 116000 216000 316000 616000 1216000
1516547674.81 840205 25.760 106107.419 78500 0 5 1 0.922 1416392 0.000 8.090 41562112.000 342085632.000 1516547674.103 1516547674.094 78500 116000 216000 316000 616000 1216000
1516547674.91 840205 25.760 106107.419 78500 0 5 1 0.922 1416392 0.000 8.090 41562112.000 342085632.000 1516547674.103 1516547674.094 78500 116000 216000 316000 616000 1216000
1516547675.01 822981 25.600 106107.419 78500 0 5 1 0.922 1416392 10.000 8.090 41562112.000 342085632.000 1516547674.103 1516547674.094 78500 116000 216000 316000 616000 1216000
1516547675.12 809376 25.560 106107.419 78500 0 5 1 0.922 1416392 0.000 8.090 41562112.000 342085632.000 1516547674.103 1516547674.094 78500 116000 216000 316000 616000 1216000
1516547675.22 796007 25.440 106107.419 78500 0 5 1 0.922 1416392 0.000 8.090 41562112.000 342085632.000 1516547674.103 1516547674.094 78500 116000 216000 316000 616000 1216000
1516547675.32 786142 25.360 106107.419 78500 0 5 1 0.922 1416392 0.000 8.090 41562112.000 342085632.000 1516547674.103 1516547674.094 78500 116000 216000 316000 616000 1216000
1516547675.42 874669 29.120 86999.030 78500 0 5 1 0.922 1529568 18.182 8.143 41832448.000 342085632.000 1516547675.414 1516547675.404 78500 116000 216000 316000 616000 1216000
1516547675.52 874669 29.120 86999.030 78500 0 5 1 0.922 1529568 0.000 8.144 41836544.000 342085632.000 1516547675.414 1516547675.404 78500 116000 216000 316000 616000 1216000
1516547675.63 871704 28.960 86999.030 78500 0 5 1 0.922 1529568 0.000 8.144 41836544.000 342085632.000 1516547675.414 1516547675.404 78500 116000 216000 316000 616000 1216000
1516547675.73 871704 28.960 86999.030 78500 0 5 1 0.922 1529568 10.000 8.144 41836544.000 342085632.000 1516547675.414 1516547675.404 78500 116000 216000 316000 616000 1216000
1516547675.83 868775 28.800 86999.030 78500 0 5 1 0.922 1529568 0.000 8.144 41836544.000 342085632.000 1516547675.414 1516547675.404 78500 116000 216000 316000 616000 1216000
1516547675.93 867746 28.640 86999.030 78500 0 5 1 0.922 1529568 0.000 8.145 41836544.000 342085632.000 1516547675.414 1516547675.404 78500 116000 216000 316000 616000 1216000
1516547676.04 867746 28.640 86999.030 78500 0 5 1 0.922 1529568 0.000 8.145 41840640.000 342085632.000 1516547675.414 1516547675.404 78500 116000 216000 316000 616000 1216000
1516547676.14 867176 28.480 86999.030 78500 0 5 1 0.922 1529568 0.000 8.145 41840640.000 342085632.000 1516547675.414 1516547675.404 78500 116000 216000 316000 616000 1216000
1516547676.24 866473 28.440 86999.030 78500 0 5 1 0.922 1529568 0.000 8.145 41840640.000 342085632.000 1516547675.414 1516547675.404 78500 116000 216000 316000 616000 1216000
1516547676.34 866316 28.280 86999.030 78500 0 5 1 0.922 1529568 9.091 8.145 41840640.000 342085632.000 1516547675.414 1516547675.404 78500 116000 216000 316000 616000 1216000
1516547676.45 861700 28.160 86999.030 78500 0 5 1 0.922 1529568 0.000 8.145 41840640.000 342085632.000 1516547675.414 1516547675.404 78500 116000 216000 316000 616000 1216000
1516547676.55 965865 32.120 107012.122 78500 0 5 1 0.922 1649324 10.000 8.251 42381312.000 342085632.000 1516547676.543 1516547676.533 78500 116000 216000 316000 616000 1216000
1516547676.65 964270 32.080 107012.122 78500 0 5 1 0.922 1649324 0.000 8.251 42385408.000 342085632.000 1516547676.543 1516547676.533 78500 116000 216000 316000 616000 1216000
1516547676.75 960282 31.960 107012.122 78500 0 5 1 0.922 1649324 9.091 8.251 42385408.000 342085632.000 1516547676.543 1516547676.533 78500 116000 216000 316000 616000 1216000
1516547676.86 952446 31.800 107012.122 78500 0 5 1 0.922 1649324 0.000 8.251 42385408.000 342085632.000 1516547676.543 1516547676.533 78500 116000 216000 316000 616000 1216000
1516547676.96 941940 31.640 107012.122 78500 0 5 1 0.922 1649324 0.000 8.251 42385408.000 342085632.000 1516547676.543 1516547676.533 78500 116000 216000 316000 616000 1216000
1516547677.06 941940 31.640 107012.122 78500 0 5 1 0.922 1649324 0.000 8.251 42385408.000 342085632.000 1516547676.543 1516547676.533 78500 116000 216000 316000 616000 1216000
1516547677.16 926694 31.520 107012.122 78500 0 5 1 0.922 1649324 10.000 8.251 42385408.000 342085632.000 1516547676.543 1516547676.533 78500 116000 216000 316000 616000 1216000
1516547677.26 913910 31.360 107012.122 78500 0 5 1 0.922 1649324 9.091 8.251 42385408.000 342085632.000 1516547676.543 1516547676.533 78500 116000 216000 316000 616000 1216000
1516547677.37 913910 31.360 107012.122 78500 0 5 1 0.922 1649324 0.000 8.251 42385408.000 342085632.000 1516547676.543 1516547676.533 78500 116000 216000 316000 616000 1216000
1516547677.47 893089 31.200 107012.122 78500 0 5 1 0.922 1649324 10.000 8.251 42385408.000 342085632.000 1516547676.543 1516547676.533 78500 116000 216000 316000 616000 1216000
1516547677.57 874650 31.040 107012.122 78500 0 5 1 0.922 1649324 0.000 8.251 42385408.000 342085632.000 1516547676.543 1516547676.533 78500 116000 216000 316000 616000 1216000
1516547677.67 874650 31.040 107012.122 78500 0 5 1 0.922 1649324 9.091 8.251 42385408.000 342085632.000 1516547676.543 1516547676.533 78500 116000 216000 316000 616000 1216000
1516547677.78 855931 30.880 107012.122 78500 0 5 1 0.922 1649324 0.000 8.251 42385408.000 342085632.000 1516547676.543 1516547676.533 78500 116000 216000 316000 616000 1216000
1516547677.88 836760 30.840 107012.122 78500 0 5 1 0.922 1649324 0.000 8.251 42385408.000 342085632.000 1516547676.543 1516547676.533 78500 116000 216000 316000 616000 1216000
1516547677.98 828958 30.600 107012.122 78500 0 5 1 0.922 1649324 0.000 8.251 42385408.000 342085632.000 1516547676.543 1516547676.533 78500 116000 216000 316000 616000 1216000
1516547678.08 828958 30.600 107012.122 78500 0 5 1 0.922 1649324 0.000 8.251 42385408.000 342085632.000 1516547676.543 1516547676.533 78500 116000 216000 316000 616000 1216000
1516547678.19 972888 34.480 105491.133 78500 0 5 1 0.922 1815516 10.000 8.304 42655744.000 342085632.000 1516547678.127 1516547678.118 78500 116000 216000 316000 616000 1216000
1516547678.29 969254 34.400 105491.133 78500 0 5 1 0.922 1815516 0.000 8.304 42659840.000 342085632.000 1516547678.127 1516547678.118 78500 116000 216000 316000 616000 1216000
1516547678.39 961979 34.200 105491.133 78500 0 5 1 0.922 1815516 10.000 8.304 42659840.000 342085632.000 1516547678.127 1516547678.118 78500 116000 216000 316000 616000 1216000
1516547678.49 961979 34.200 105491.133 78500 0 5 1 0.922 1815516 0.000 8.304 42659840.000 342085632.000 1516547678.127 1516547678.118 78500 116000 216000 316000 616000 1216000
1516547678.59 954168 33.960 105491.133 78500 0 5 1 0.922 1815516 0.000 8.304 42659840.000 342085632.000 1516547678.127 1516547678.118 78500 116000 216000 316000 616000 1216000
1516547678.69 954168 33.960 105491.133 78500 0 5 1 0.922 1815516 0.000 8.304 42659840.000 342085632.000 1516547678.127 1516547678.118 78500 116000 216000 316000 616000 1216000
1516547678.80 948649 33.880 105491.133 78500 0 5 1 0.922 1815516 0.000 8.304 42659840.000 342085632.000 1516547678.127 1516547678.118 78500 116000 216000 316000 616000 1216000
1516547678.90 945670 33.720 105491.133 78500 0 5 1 0.922 1815516 10.000 8.304 42659840.000 342085632.000 1516547678.127 1516547678.118 78500 116000 216000 316000 616000 1216000
1516547679.00 940433 33.560 105491.133 78500 0 5 1 0.922 1815516 0.000 8.304 42659840.000 342085632.000 1516547678.127 1516547678.118 78500 116000 216000 316000 616000 1216000
1516547679.10 940433 33.560 105491.133 78500 0 5 1 0.922 1815516 0.000 8.304 42659840.000 342085632.000 1516547678.127 1516547678.118 78500 116000 216000 316000 616000 1216000
1516547679.20 935299 33.480 105491.133 78500 0 5 1 0.922 1815516 9.091 8.304 42659840.000 342085632.000 1516547678.127 1516547678.118 78500 116000 216000 316000 616000 1216000
1516547679.31 929987 33.240 105491.133 78500 0 5 1 0.922 1815516 0.000 8.304 42659840.000 342085632.000 1516547678.127 1516547678.118 78500 116000 216000 316000 616000 1216000
1516547679.41 929987 33.240 105491.133 78500 0 5 1 0.922 1815516 0.000 8.304 42659840.000 342085632.000 1516547678.127 1516547678.118 78500 116000 216000 316000 616000 1216000
1516547679.51 925625 33.080 105491.133 78500 0 5 1 0.922 1815516 9.091 8.304 42659840.000 342085632.000 1516547678.127 1516547678.118 78500 116000 216000 316000 616000 1216000
1516547679.61 925625 33.080 105491.133 78500 0 5 1 0.922 1815516 0.000 8.304 42659840.000 342085632.000 1516547678.127 1516547678.118 78500 116000 216000 316000 616000 1216000
1516547679.72 919199 32.880 105491.133 78500 0 5 1 0.922 1815516 10.000 8.304 42659840.000 342085632.000 1516547678.127 1516547678.118 78500 116000 216000 316000 616000 1216000
1516547679.82 915699 32.720 105491.133 78500 0 5 1 0.922 1815516 0.000 8.304 42659840.000 342085632.000 1516547678.127 1516547678.118 78500 116000 216000 316000 616000 1216000
1516547679.92 915699 32.720 105491.133 78500 0 5 1 0.922 1815516 0.000 8.304 42659840.000 342085632.000 1516547678.127 1516547678.118 78500 116000 216000 316000 616000 1216000
1516547680.02 911376 32.640 105491.133 78500 0 5 1 0.922 1815516 10.000 8.304 42659840.000 342085632.000 1516547678.127 1516547678.118 78500 116000 216000 316000 616000 1216000
1516547680.12 909259 32.560 105491.133 78500 0 5 1 0.922 1815516 0.000 8.304 42659840.000 342085632.000 1516547678.127 1516547678.118 78500 116000 216000 316000 616000 1216000
1516547680.22 907255 32.440 105491.133 78500 0 5 1 0.922 1815516 0.000 8.304 42659840.000 342085632.000 1516547678.127 1516547678.118 78500 116000 216000 316000 616000 1216000
1516547680.33 904295 32.280 105491.133 78500 0 5 1 0.922 1815516 0.000 8.304 42659840.000 342085632.000 1516547678.127 1516547678.118 78500 116000 216000 316000 616000 1216000
1516547680.43 895416 32.120 105491.133 78500 0 5 1 0.922 1815516 10.000 8.304 42659840.000 342085632.000 1516547678.127 1516547678.118 78500 116000 216000 316000 616000 1216000
1516547680.53 895416 32.120 105491.133 78500 0 5 1 0.922 1815516 0.000 8.304 42659840.000 342085632.000 1516547678.127 1516547678.118 78500 116000 216000 316000 616000 1216000
1516547680.63 894192 31.960 105491.133 78500 0 5 1 0.922 1815516 0.000 8.304 42659840.000 342085632.000 1516547678.127 1516547678.118 78500 116000 216000 316000 616000 1216000
1516547680.74 892658 31.920 105491.133 78500 0 5 1 0.922 1815516 0.000 8.304 42659840.000 342085632.000 1516547678.127 1516547678.118 78500 116000 216000 316000 616000 1216000
1516547680.84 883715 31.800 105491.133 78500 0 5 1 0.922 1815516 10.000 8.304 42659840.000 342085632.000 1516547678.127 1516547678.118 78500 116000 216000 316000 616000 1216000
1516547680.94 882491 31.680 105491.133 78500 0 5 1 0.922 1815516 0.000 8.304 42659840.000 342085632.000 1516547678.127 1516547678.118 78500 116000 216000 316000 616000 1216000
1516547681.04 881102 31.560 105491.133 78500 0 5 1 0.922 1815516 0.000 8.304 42659840.000 342085632.000 1516547678.127 1516547678.118 78500 116000 216000 316000 616000 1216000
1516547681.14 1045883 35.400 61442.361 78500 0 5 1 0.922 1997876 20.000 8.304 42659840.000 342085632.000 1516547681.104 1516547681.095 78500 116000 216000 316000 616000 1216000
1516547681.25 1045883 35.400 61442.361 78500 0 5 1 0.922 1997876 0.000 8.304 42659840.000 342085632.000 1516547681.104 1516547681.095 78500 116000 216000 316000 616000 1216000
1516547681.35 1044463 35.240 61442.361 78500 0 5 1 0.922 1997876 0.000 8.305 42663936.000 342085632.000 1516547681.104 1516547681.095 78500 116000 216000 316000 616000 1216000
1516547681.45 1044463 35.240 61442.361 78500 0 5 1 0.922 1997876 0.000 8.305 42663936.000 342085632.000 1516547681.104 1516547681.095 78500 116000 216000 316000 616000 1216000
1516547681.55 1043198 35.080 61442.361 78500 0 5 1 0.922 1997876 0.000 8.306 42663936.000 342085632.000 1516547681.104 1516547681.095 78500 116000 216000 316000 616000 1216000
1516547681.66 1041947 34.920 61442.361 78500 0 5 1 0.922 1997876 10.000 8.306 42668032.000 342085632.000 1516547681.104 1516547681.095 78500 116000 216000 316000 616000 1216000
1516547681.76 1041947 34.920 61442.361 78500 0 5 1 0.922 1997876 0.000 8.306 42668032.000 342085632.000 1516547681.104 1516547681.095 78500 116000 216000 316000 616000 1216000
1516547681.86 1040685 34.760 61442.361 78500 0 5 1 0.922 1997876 0.000 8.306 42668032.000 342085632.000 1516547681.104 1516547681.095 78500 116000 216000 316000 616000 1216000
1516547681.96 1039555 34.720 61442.361 78500 0 5 1 0.922 1997876 10.000 8.306 42668032.000 342085632.000 1516547681.104 1516547681.095 78500 116000 216000 316000 616000 1216000
1516547682.07 1038156 34.600 61442.361 78500 0 5 1 0.922 1997876 0.000 8.306 42668032.000 342085632.000 1516547681.104 1516547681.095 78500 116000 216000 316000 616000 1216000
1516547682.17 1037738 34.520 61442.361 78500 0 5 1 0.922 1997876 10.000 8.306 42668032.000 342085632.000 1516547681.104 1516547681.095 78500 116000 216000 316000 616000 1216000
1516547682.27 1036856 34.400 61442.361 78500 0 5 1 0.922 1997876 0.000 8.306 42668032.000 342085632.000 1516547681.104 1516547681.095 78500 116000 216000 316000 616000 1216000
1516547682.37 1035587 34.280 61442.361 78500 0 5 1 0.922 1997876 10.000 8.306 42668032.000 342085632.000 1516547681.104 1516547681.095 78500 116000 216000 316000 616000 1216000
1516547682.48 1180075 38.120 125620.071 116000 1 5 1 0.922 2159744 0.000 8.411 43208704.000 342085632.000 1516547682.396 1516547682.392 78500 116000 216000 316000 616000 1216000
1516547682.58 1179393 38.080 125620.071 116000 1 5 1 0.922 2159744 10.000 8.411 43208704.000 342085632.000 1516547682.396 1516547682.392 78500 116000 216000 316000 616000 1216000
1516547682.68 1179058 38.000 125620.071 116000 1 5 1 0.922 2159744 0.000 8.411 43208704.000 342085632.000 1516547682.396 1516547682.392 78500 116000 216000 316000 616000 1216000
1516547682.78 1178575 37.880 125620.071 116000 1 5 1 0.922 2159744 0.000 8.411 43208704.000 342085632.000 1516547682.396 1516547682.392 78500 116000 216000 316000 616000 1216000
1516547682.89 1177995 37.800 125620.071 116000 1 5 1 0.922 2159744 10.000 8.411 43208704.000 342085632.000 1516547682.396 1516547682.392 78500 116000 216000 316000 616000 1216000
1516547682.99 1177663 37.640 125620.071 116000 1 5 1 0.922 2159744 0.000 8.411 43208704.000 342085632.000 1516547682.396 1516547682.392 78500 116000 216000 316000 616000 1216000
1516547683.09 1177222 37.520 125620.071 116000 1 5 1 0.922 2159744 0.000 8.412 43208704.000 342085632.000 1516547682.396 1516547682.392 78500 116000 216000 316000 616000 1216000
1516547683.19 1176943 37.360 125620.071 116000 1 5 1 0.922 2159744 0.000 8.412 43212800.000 342085632.000 1516547682.396 1516547682.392 78500 116000 216000 316000 616000 1216000
1516547683.30 1176943 37.360 125620.071 116000 1 5 1 0.922 2159744 10.000 8.412 43212800.000 342085632.000 1516547682.396 1516547682.392 78500 116000 216000 316000 616000 1216000
1516547683.40 1168297 37.200 125620.071 116000 1 5 1 0.922 2159744 0.000 8.412 43212800.000 342085632.000 1516547682.396 1516547682.392 78500 116000 216000 316000 616000 1216000
1516547683.50 1160353 37.040 125620.071 116000 1 5 1 0.922 2159744 0.000 8.412 43212800.000 342085632.000 1516547682.396 1516547682.392 78500 116000 216000 316000 616000 1216000
1516547683.60 1160353 37.040 125620.071 116000 1 5 1 0.922 2159744 0.000 8.412 43212800.000 342085632.000 1516547682.396 1516547682.392 78500 116000 216000 316000 616000 1216000
1516547683.71 1145715 36.880 125620.071 116000 1 5 1 0.922 2159744 9.091 8.412 43212800.000 342085632.000 1516547682.396 1516547682.392 78500 116000 216000 316000 616000 1216000
1516547683.81 1145715 36.880 125620.071 116000 1 5 1 0.922 2159744 0.000 8.412 43212800.000 342085632.000 1516547682.396 1516547682.392 78500 116000 216000 316000 616000 1216000
1516547683.91 1130437 36.640 125620.071 116000 1 5 1 0.922 2159744 10.000 8.412 43212800.000 342085632.000 1516547682.396 1516547682.392 78500 116000 216000 316000 616000 1216000
1516547684.01 1130437 36.640 125620.071 116000 1 5 1 0.922 2159744 0.000 8.412 43212800.000 342085632.000 1516547682.396 1516547682.392 78500 116000 216000 316000 616000 1216000
1516547684.11 1127226 36.480 125620.071 116000 1 5 1 0.922 2159744 0.000 8.412 43212800.000 342085632.000 1516547682.396 1516547682.392 78500 116000 216000 316000 616000 1216000
1516547684.22 1124360 36.320 125620.071 116000 1 5 1 0.922 2159744 0.000 8.412 43212800.000 342085632.000 1516547682.396 1516547682.392 78500 116000 216000 316000 616000 1216000
1516547684.32 1124360 36.320 125620.071 116000 1 5 1 0.922 2159744 0.000 8.412 43212800.000 342085632.000 1516547682.396 1516547682.392 78500 116000 216000 316000 616000 1216000
1516547684.43 1121308 36.160 125620.071 116000 1 5 1 0.922 2159744 9.091 8.412 43212800.000 342085632.000 1516547682.396 1516547682.392 78500 116000 216000 316000 616000 1216000
1516547684.53 1121308 36.160 125620.071 116000 1 5 1 0.922 2159744 10.000 8.412 43212800.000 342085632.000 1516547682.396 1516547682.392 78500 116000 216000 316000 616000 1216000
1516547684.63 1118459 36.000 125620.071 116000 1 5 1 0.922 2159744 0.000 8.412 43212800.000 342085632.000 1516547682.396 1516547682.392 78500 116000 216000 316000 616000 1216000
1516547684.73 1115935 35.960 125620.071 116000 1 5 1 0.922 2159744 0.000 8.412 43212800.000 342085632.000 1516547682.396 1516547682.392 78500 116000 216000 316000 616000 1216000
1516547684.83 1105765 35.760 125620.071 116000 1 5 1 0.922 2159744 10.000 8.412 43212800.000 342085632.000 1516547682.396 1516547682.392 78500 116000 216000 316000 616000 1216000
1516547684.94 1104115 35.600 125620.071 116000 1 5 1 0.922 2159744 0.000 8.412 43212800.000 342085632.000 1516547682.396 1516547682.392 78500 116000 216000 316000 616000 1216000
1516547685.04 1104115 35.600 125620.071 116000 1 5 1 0.922 2159744 0.000 8.412 43212800.000 342085632.000 1516547682.396 1516547682.392 78500 116000 216000 316000 616000 1216000
1516547685.14 1255101 39.400 62476.327 116000 1 5 1 0.922 2328004 10.000 8.465 43483136.000 342085632.000 1516547685.099 1516547685.089 78500 116000 216000 316000 616000 1216000
1516547685.24 1255101 39.400 62476.327 116000 1 5 1 0.922 2328004 0.000 8.465 43487232.000 342085632.000 1516547685.099 1516547685.089 78500 116000 216000 316000 616000 1216000
1516547685.34 1253733 39.240 62476.327 116000 1 5 1 0.922 2328004 9.091 8.465 43487232.000 342085632.000 1516547685.099 1516547685.089 78500 116000 216000 316000 616000 1216000
1516547685.45 1246255 39.080 62476.327 116000 1 5 1 0.922 2328004 0.000 8.465 43487232.000 342085632.000 1516547685.099 1516547685.089 78500 116000 216000 316000 616000 1216000
1516547685.55 1246255 39.080 62476.327 116000 1 5 1 0.922 2328004 0.000 8.465 43487232.000 342085632.000 1516547685.099 1516547685.089 78500 116000 216000 316000 616000 1216000
1516547685.65 1243626 38.880 62476.327 116000 1 5 1 0.922 2328004 0.000 8.465 43487232.000 342085632.000 1516547685.099 1516547685.089 78500 116000 216000 316000 616000 1216000
1516547685.75 1243626 38.880 62476.327 116000 1 5 1 0.922 2328004 9.091 8.465 43487232.000 342085632.000 1516547685.099 1516547685.089 78500 116000 216000 316000 616000 1216000
1516547685.85 1241760 38.720 62476.327 116000 1 5 1 0.922 2328004 10.000 8.465 43487232.000 342085632.000 1516547685.099 1516547685.089 78500 116000 216000 316000 616000 1216000
1516547685.96 1239998 38.560 62476.327 116000 1 5 1 0.922 2328004 10.000 8.465 43487232.000 342085632.000 1516547685.099 1516547685.089 78500 116000 216000 316000 616000 1216000
1516547686.06 1239998 38.560 62476.327 116000 1 5 1 0.922 2328004 0.000 8.465 43487232.000 342085632.000 1516547685.099 1516547685.089 78500 116000 216000 316000 616000 1216000
1516547686.16 1238180 38.440 62476.327 116000 1 5 1 0.922 2328004 0.000 8.465 43487232.000 342085632.000 1516547685.099 1516547685.089 78500 116000 216000 316000 616000 1216000
1516547686.26 1236875 38.280 62476.327 116000 1 5 1 0.922 2328004 0.000 8.465 43487232.000 342085632.000 1516547685.099 1516547685.089 78500 116000 216000 316000 616000 1216000
1516547686.37 1236875 38.280 62476.327 116000 1 5 1 0.922 2328004 0.000 8.465 43487232.000 342085632.000 1516547685.099 1516547685.089 78500 116000 216000 316000 616000 1216000
1516547686.47 1235443 38.120 62476.327 116000 1 5 1 0.922 2328004 0.000 8.465 43487232.000 342085632.000 1516547685.099 1516547685.089 78500 116000 216000 316000 616000 1216000
1516547686.57 1233847 38.040 62476.327 116000 1 5 1 0.922 2328004 9.091 8.465 43487232.000 342085632.000 1516547685.099 1516547685.089 78500 116000 216000 316000 616000 1216000
1516547686.67 1232859 37.880 62476.327 116000 1 5 1 0.922 2328004 0.000 8.465 43487232.000 342085632.000 1516547685.099 1516547685.089 78500 116000 216000 316000 616000 1216000
1516547686.78 1231023 37.720 62476.327 116000 1 5 1 0.922 2328004 10.000 8.465 43487232.000 342085632.000 1516547685.099 1516547685.089 78500 116000 216000 316000 616000 1216000
1516547686.88 1231023 37.720 62476.327 116000 1 5 1 0.922 2328004 0.000 8.465 43487232.000 342085632.000 1516547685.099 1516547685.089 78500 116000 216000 316000 616000 1216000
1516547686.98 1229191 37.600 62476.327 116000 1 5 1 0.922 2328004 0.000 8.465 43487232.000 342085632.000 1516547685.099 1516547685.089 78500 116000 216000 316000 616000 1216000
1516547687.08 1227751 37.440 62476.327 116000 1 5 1 0.922 2328004 0.000 8.465 43487232.000 342085632.000 1516547685.099 1516547685.089 78500 116000 216000 316000 616000 1216000
1516547687.18 1416509 41.440 99570.654 116000 1 5 1 0.922 2532924 9.091 8.519 43757568.000 342085632.000 1516547687.167 1516547687.157 78500 116000 216000 316000 616000 1216000
1516547687.29 1414957 41.280 99570.654 116000 1 5 1 0.922 2532924 10.000 8.519 43765760.000 342085632.000 1516547687.167 1516547687.157 78500 116000 216000 316000 616000 1216000
1516547687.39 1413311 41.200 99570.654 116000 1 5 1 0.922 2532924 0.000 8.519 43765760.000 342085632.000 1516547687.167 1516547687.157 78500 116000 216000 316000 616000 1216000
1516547687.49 1412408 41.080 99570.654 116000 1 5 1 0.922 2532924 0.000 8.519 43765760.000 342085632.000 1516547687.167 1516547687.157 78500 116000 216000 316000 616000 1216000
1516547687.59 1411229 40.920 99570.654 116000 1 5 1 0.922 2532924 9.091 8.519 43765760.000 342085632.000 1516547687.167 1516547687.157 78500 116000 216000 316000 616000 1216000
1516547687.70 1411229 40.920 99570.654 116000 1 5 1 0.922 2532924 0.000 8.519 43765760.000 342085632.000 1516547687.167 1516547687.157 78500 116000 216000 316000 616000 1216000
1516547687.80 1406175 40.760 99570.654 116000 1 5 1 0.922 2532924 10.000 8.519 43765760.000 342085632.000 1516547687.167 1516547687.157 78500 116000 216000 316000 616000 1216000
1516547687.90 1404565 40.600 99570.654 116000 1 5 1 0.922 2532924 0.000 8.519 43765760.000 342085632.000 1516547687.167 1516547687.157 78500 116000 216000 316000 616000 1216000
1516547688.00 1492585 44.640 133609.607 116000 1 5 1 0.922 2635572 0.000 8.573 44036096.000 342085632.000 1516547687.167 1516547687.935 78500 116000 216000 316000 616000 1216000
1516547688.11 1491028 44.560 133609.607 116000 1 5 1 0.922 2635572 0.000 8.573 44040192.000 342085632.000 1516547687.167 1516547687.935 78500 116000 216000 316000 616000 1216000
1516547688.21 1488832 44.480 133609.607 116000 1 5 1 0.922 2635572 10.000 8.573 44040192.000 342085632.000 1516547687.167 1516547687.935 78500 116000 216000 316000 616000 1216000
1516547688.31 1486350 44.360 133609.607 116000 1 5 1 0.922 2635572 0.000 8.573 44040192.000 342085632.000 1516547687.167 1516547687.935 78500 116000 216000 316000 616000 1216000
1516547688.41 1483224 44.200 133609.607 116000 1 5 1 0.922 2635572 0.000 8.573 44040192.000 342085632.000 1516547687.167 1516547687.935 78500 116000 216000 316000 616000 1216000
1516547688.52 1475534 44.080 133609.607 116000 1 5 1 0.922 2635572 10.000 8.573 44040192.000 342085632.000 1516547687.167 1516547687.935 78500 116000 216000 316000 616000 1216000
1516547688.62 1468436 44.040 133609.607 116000 1 5 1 0.922 2635572 10.000 8.573 44040192.000 342085632.000 1516547687.167 1516547687.935 78500 116000 216000 316000 616000 1216000
1516547688.72 1463645 43.960 133609.607 116000 1 5 1 0.922 2635572 0.000 8.573 44040192.000 342085632.000 1516547687.167 1516547687.935 78500 116000 216000 316000 616000 1216000
1516547688.82 1451866 43.840 133609.607 116000 1 5 1 0.922 2635572 0.000 8.573 44040192.000 342085632.000 1516547687.167 1516547687.935 78500 116000 216000 316000 616000 1216000
1516547688.93 1449908 43.680 133609.607 116000 1 5 1 0.922 2635572 9.091 8.573 44040192.000 342085632.000 1516547687.167 1516547687.935 78500 116000 216000 316000 616000 1216000
1516547689.03 1447431 43.600 133609.607 116000 1 5 1 0.922 2635572 0.000 8.573 44040192.000 342085632.000 1516547687.167 1516547687.935 78500 116000 216000 316000 616000 1216000
1516547689.13 1446386 43.480 133609.607 116000 1 5 1 0.922 2635572 10.000 8.573 44040192.000 342085632.000 1516547687.167 1516547687.935 78500 116000 216000 316000 616000 1216000
1516547689.23 1445441 43.440 133609.607 116000 1 5 1 0.922 2635572 0.000 8.573 44040192.000 342085632.000 1516547687.167 1516547687.935 78500 116000 216000 316000 616000 1216000
1516547689.33 1445160 43.280 133609.607 116000 1 5 1 0.922 2635572 0.000 8.573 44040192.000 342085632.000 1516547687.167 1516547687.935 78500 116000 216000 316000 616000 1216000
1516547689.44 1436711 43.120 133609.607 116000 1 5 1 0.922 2635572 10.000 8.573 44040192.000 342085632.000 1516547687.167 1516547687.935 78500 116000 216000 316000 616000 1216000
1516547689.54 1436711 43.120 133609.607 116000 1 5 1 0.922 2635572 0.000 8.573 44040192.000 342085632.000 1516547687.167 1516547687.935 78500 116000 216000 316000 616000 1216000
1516547689.64 1434271 42.960 133609.607 116000 1 5 1 0.922 2635572 0.000 8.573 44040192.000 342085632.000 1516547687.167 1516547687.935 78500 116000 216000 316000 616000 1216000
1516547689.74 1431643 42.800 133609.607 116000 1 5 1 0.922 2635572 10.000 8.573 44040192.000 342085632.000 1516547687.167 1516547687.935 78500 116000 216000 316000 616000 1216000
1516547689.85 1431643 42.800 133609.607 116000 1 5 1 0.922 2635572 0.000 8.573 44040192.000 342085632.000 1516547687.167 1516547687.935 78500 116000 216000 316000 616000 1216000
1516547689.95 1429008 42.640 133609.607 116000 1 5 1 0.922 2635572 0.000 8.573 44040192.000 342085632.000 1516547687.167 1516547687.935 78500 116000 216000 316000 616000 1216000
1516547690.05 1429008 42.640 133609.607 116000 1 5 1 0.922 2635572 0.000 8.573 44040192.000 342085632.000 1516547687.167 1516547687.935 78500 116000 216000 316000 616000 1216000
1516547690.15 1426303 42.480 133609.607 116000 1 5 1 0.922 2635572 0.000 8.573 44040192.000 342085632.000 1516547687.167 1516547687.935 78500 116000 216000 316000 616000 1216000
1516547690.25 1423478 42.360 133609.607 116000 1 5 1 0.922 2635572 10.000 8.573 44040192.000 342085632.000 1516547687.167 1516547687.935 78500 116000 216000 316000 616000 1216000
1516547690.35 1421162 42.200 133609.607 116000 1 5 1 0.922 2635572 0.000 8.573 44040192.000 342085632.000 1516547687.167 1516547687.935 78500 116000 216000 316000 616000 1216000
1516547690.45 1421162 42.200 133609.607 116000 1 5 1 0.922 2635572 0.000 8.573 44040192.000 342085632.000 1516547687.167 1516547687.935 78500 116000 216000 316000 616000 1216000
1516547690.56 1418277 42.040 133609.607 116000 1 5 1 0.922 2635572 0.000 8.573 44040192.000 342085632.000 1516547687.167 1516547687.935 78500 116000 216000 316000 616000 1216000
1516547690.66 1415165 41.880 133609.607 116000 1 5 1 0.922 2635572 0.000 8.573 44040192.000 342085632.000 1516547687.167 1516547687.935 78500 116000 216000 316000 616000 1216000
1516547690.76 1415165 41.880 133609.607 116000 1 5 1 0.922 2635572 0.000 8.573 44040192.000 342085632.000 1516547687.167 1516547687.935 78500 116000 216000 316000 616000 1216000
1516547690.86 1412116 41.720 133609.607 116000 1 5 1 0.922 2635572 9.091 8.573 44040192.000 342085632.000 1516547687.167 1516547687.935 78500 116000 216000 316000 616000 1216000
1516547690.97 1412116 41.720 133609.607 116000 1 5 1 0.922 2635572 0.000 8.573 44040192.000 342085632.000 1516547687.167 1516547687.935 78500 116000 216000 316000 616000 1216000
1516547691.07 1408774 41.560 133609.607 116000 1 5 1 0.922 2635572 10.000 8.573 44040192.000 342085632.000 1516547687.167 1516547687.935 78500 116000 216000 316000 616000 1216000
1516547691.17 1404804 41.400 133609.607 116000 1 5 1 0.922 2635572 0.000 8.573 44040192.000 342085632.000 1516547687.167 1516547687.935 78500 116000 216000 316000 616000 1216000
1516547691.27 1404804 41.400 133609.607 116000 1 5 1 0.922 2635572 0.000 8.573 44040192.000 342085632.000 1516547687.167 1516547687.935 78500 116000 216000 316000 616000 1216000
1516547691.37 1400494 41.280 133609.607 116000 1 5 1 0.922 2635572 0.000 8.573 44040192.000 342085632.000 1516547687.167 1516547687.935 78500 116000 216000 316000 616000 1216000
1516547691.48 1396943 41.160 133609.607 116000 1 5 1 0.922 2635572 0.000 8.573 44040192.000 342085632.000 1516547687.167 1516547687.935 78500 116000 216000 316000 616000 1216000
1516547691.58 1393773 41.000 133609.607 116000 1 5 1 0.922 2635572 10.000 8.573 44040192.000 342085632.000 1516547687.167 1516547687.935 78500 116000 216000 316000 616000 1216000
1516547691.68 1393773 41.000 133609.607 116000 1 5 1 0.922 2635572 0.000 8.573 44040192.000 342085632.000 1516547687.167 1516547687.935 78500 116000 216000 316000 616000 1216000
1516547691.78 1389946 40.880 133609.607 116000 1 5 1 0.922 2635572 0.000 8.573 44040192.000 342085632.000 1516547687.167 1516547687.935 78500 116000 216000 316000 616000 1216000
1516547691.89 1387060 40.760 133609.607 116000 1 5 1 0.922 2635572 9.091 8.573 44040192.000 342085632.000 1516547691.812 1516547687.935 78500 116000 216000 316000 616000 1216000
1516547691.99 1384051 40.600 133609.607 116000 1 5 1 0.922 2635572 10.000 8.573 44040192.000 342085632.000 1516547691.812 1516547687.935 78500 116000 216000 316000 616000 1216000
1516547692.09 1384051 40.600 133609.607 116000 1 5 1 0.922 2635572 0.000 8.573 44040192.000 342085632.000 1516547691.812 1516547687.935 78500 116000 216000 316000 616000 1216000
1516547692.19 1379887 40.440 133609.607 116000 1 5 1 0.922 2635572 0.000 8.573 44040192.000 342085632.000 1516547691.812 1516547687.935 78500 116000 216000 316000 616000 1216000
1516547692.30 1376016 40.280 133609.607 116000 1 5 1 0.922 2635572 0.000 8.573 44040192.000 342085632.000 1516547691.812 1516547687.935 78500 116000 216000 316000 616000 1216000
1516547692.40 1376016 40.280 133609.607 116000 1 5 1 0.922 2635572 0.000 8.573 44040192.000 342085632.000 1516547691.812 1516547687.935 78500 116000 216000 316000 616000 1216000
1516547692.50 1372303 40.120 133609.607 116000 1 5 1 0.922 2635572 0.000 8.573 44044288.000 342085632.000 1516547691.812 1516547687.935 78500 116000 216000 316000 616000 1216000
1516547692.60 1368976 40.040 133609.607 116000 1 5 1 0.922 2635572 20.000 8.573 44044288.000 342085632.000 1516547691.812 1516547687.935 78500 116000 216000 316000 616000 1216000
1516547692.71 1367169 39.960 133609.607 116000 1 5 1 0.922 2635572 0.000 8.573 44044288.000 342085632.000 1516547691.812 1516547687.935 78500 116000 216000 316000 616000 1216000
1516547692.81 1358995 39.760 133609.607 116000 1 5 1 0.922 2635572 0.000 8.573 44044288.000 342085632.000 1516547691.812 1516547687.935 78500 116000 216000 316000 616000 1216000
1516547692.91 1358995 39.760 133609.607 116000 1 5 1 0.922 2635572 10.000 8.573 44044288.000 342085632.000 1516547691.812 1516547687.935 78500 116000 216000 316000 616000 1216000
1516547693.01 1469049 43.560 126120.334 116000 1 5 1 0.922 2776948 0.000 8.574 44044288.000 342085632.000 1516547691.812 1516547692.933 78500 116000 216000 316000 616000 1216000
1516547693.11 1467126 43.400 126120.334 116000 1 5 1 0.922 2776948 10.000 8.574 44048384.000 342085632.000 1516547691.812 1516547692.933 78500 116000 216000 316000 616000 1216000
1516547693.22 1467126 43.400 126120.334 116000 1 5 1 0.922 2776948 0.000 8.574 44048384.000 342085632.000 1516547691.812 1516547692.933 78500 116000 216000 316000 616000 1216000
1516547693.32 1464801 43.280 126120.334 116000 1 5 1 0.922 2776948 0.000 8.574 44048384.000 342085632.000 1516547691.812 1516547692.933 78500 116000 216000 316000 616000 1216000
1516547693.42 1462752 43.120 126120.334 116000 1 5 1 0.922 2776948 0.000 8.574 44048384.000 342085632.000 1516547691.812 1516547692.933 78500 116000 216000 316000 616000 1216000
1516547693.52 1462752 43.120 126120.334 116000 1 5 1 0.922 2776948 0.000 8.574 44048384.000 342085632.000 1516547691.812 1516547692.933 78500 116000 216000 316000 616000 1216000
1516547693.62 1459864 42.920 126120.334 116000 1 5 1 0.922 2776948 9.091 8.574 44048384.000 342085632.000 1516547691.812 1516547692.933 78500 116000 216000 316000 616000 1216000
1516547693.73 1459864 42.920 126120.334 116000 1 5 1 0.922 2776948 0.000 8.574 44048384.000 342085632.000 1516547691.812 1516547692.933 78500 116000 216000 316000 616000 1216000
1516547693.83 1455821 42.680 126120.334 116000 1 5 1 0.922 2776948 10.000 8.574 44048384.000 342085632.000 1516547691.812 1516547692.933 78500 116000 216000 316000 616000 1216000
1516547693.93 1455821 42.680 126120.334 116000 1 5 1 0.922 2776948 0.000 8.574 44048384.000 342085632.000 1516547691.812 1516547692.933 78500 116000 216000 316000 616000 1216000
1516547694.03 1451071 42.560 126120.334 116000 1 5 1 0.922 2776948 0.000 8.574 44048384.000 342085632.000 1516547691.812 1516547692.933 78500 116000 216000 316000 616000 1216000
1516547694.13 1449222 42.400 126120.334 116000 1 5 1 0.922 2776948 0.000 8.574 44048384.000 342085632.000 1516547691.812 1516547692.933 78500 116000 216000 316000 616000 1216000
1516547694.24 1449222 42.400 126120.334 116000 1 5 1 0.922 2776948 0.000 8.574 44048384.000 342085632.000 1516547691.812 1516547692.933 78500 116000 216000 316000 616000 1216000
1516547694.34 1444660 42.200 126120.334 116000 1 5 1 0.922 2776948 0.000 8.574 44048384.000 342085632.000 1516547691.812 1516547692.933 78500 116000 216000 316000 616000 1216000
1516547694.44 1444660 42.200 126120.334 116000 1 5 1 0.922 2776948 10.000 8.574 44048384.000 342085632.000 1516547691.812 1516547692.933 78500 116000 216000 316000 616000 1216000
1516547694.54 1441846 42.000 126120.334 116000 1 5 1 0.922 2776948 10.000 8.574 44048384.000 342085632.000 1516547691.812 1516547692.933 78500 116000 216000 316000 616000 1216000
1516547694.64 1441846 42.000 126120.334 116000 1 5 1 0.922 2776948 0.000 8.574 44048384.000 342085632.000 1516547691.812 1516547692.933 78500 116000 216000 316000 616000 1216000
1516547694.75 1440615 41.840 126120.334 116000 1 5 1 0.922 2776948 0.000 8.574 44048384.000 342085632.000 1516547691.812 1516547692.933 78500 116000 216000 316000 616000 1216000
1516547694.85 1439299 41.760 126120.334 116000 1 5 1 0.922 2776948 10.000 8.574 44048384.000 342085632.000 1516547691.812 1516547692.933 78500 116000 216000 316000 616000 1216000
1516547694.95 1438451 41.640 126120.334 116000 1 5 1 0.922 2776948 0.000 8.574 44048384.000 342085632.000 1516547691.812 1516547692.933 78500 116000 216000 316000 616000 1216000
1516547695.05 1436880 41.600 126120.334 116000 1 5 1 0.922 2776948 0.000 8.574 44048384.000 342085632.000 1516547691.812 1516547692.933 78500 116000 216000 316000 616000 1216000
1516547695.16 1436040 41.440 126120.334 116000 1 5 1 0.922 2776948 0.000 8.574 44048384.000 342085632.000 1516547691.812 1516547692.933 78500 116000 216000 316000 616000 1216000
1516547695.26 1433428 41.360 126120.334 116000 1 5 1 0.922 2776948 10.000 8.574 44048384.000 342085632.000 1516547691.812 1516547692.933 78500 116000 216000 316000 616000 1216000
1516547695.36 1432146 41.200 126120.334 116000 1 5 1 0.922 2776948 0.000 8.574 44048384.000 342085632.000 1516547691.812 1516547692.933 78500 116000 216000 316000 616000 1216000
1516547695.46 1430431 41.160 126120.334 116000 1 5 1 0.922 2776948 0.000 8.574 44048384.000 342085632.000 1516547691.812 1516547692.933 78500 116000 216000 316000 616000 1216000
1516547695.56 1429030 41.080 126120.334 116000 1 5 1 0.922 2776948 9.091 8.574 44048384.000 342085632.000 1516547695.502 1516547692.933 78500 116000 216000 316000 616000 1216000
1516547695.67 1428129 40.920 126120.334 116000 1 5 1 0.922 2776948 0.000 8.574 44048384.000 342085632.000 1516547695.502 1516547692.933 78500 116000 216000 316000 616000 1216000
1516547695.77 1425968 40.800 126120.334 116000 1 5 1 0.922 2776948 0.000 8.574 44048384.000 342085632.000 1516547695.502 1516547692.933 78500 116000 216000 316000 616000 1216000
1516547695.87 1424480 40.640 126120.334 116000 1 5 1 0.922 2776948 0.000 8.574 44048384.000 342085632.000 1516547695.502 1516547692.933 78500 116000 216000 316000 616000 1216000
1516547695.97 1424480 40.640 126120.334 116000 1 5 1 0.922 2776948 0.000 8.574 44048384.000 342085632.000 1516547695.502 1516547692.933 78500 116000 216000 316000 616000 1216000
1516547696.08 1423202 40.480 126120.334 116000 1 5 1 0.922 2776948 10.000 8.574 44048384.000 342085632.000 1516547695.502 1516547692.933 78500 116000 216000 316000 616000 1216000
1516547696.18 1420945 40.320 126120.334 116000 1 5 1 0.922 2776948 0.000 8.574 44048384.000 342085632.000 1516547695.502 1516547692.933 78500 116000 216000 316000 616000 1216000
1516547696.28 1420945 40.320 126120.334 116000 1 5 1 0.922 2776948 0.000 8.574 44048384.000 342085632.000 1516547695.502 1516547692.933 78500 116000 216000 316000 616000 1216000
1516547696.38 1408754 40.160 126120.334 116000 1 5 1 0.922 2776948 0.000 8.575 44052480.000 342085632.000 1516547695.502 1516547692.933 78500 116000 216000 316000 616000 1216000
1516547696.49 1408754 40.160 126120.334 116000 1 5 1 0.922 2776948 18.182 8.575 44052480.000 342085632.000 1516547695.502 1516547692.933 78500 116000 216000 316000 616000 1216000
1516547696.59 1405410 40.000 126120.334 116000 1 5 1 0.922 2776948 0.000 8.575 44052480.000 342085632.000 1516547695.502 1516547692.933 78500 116000 216000 316000 616000 1216000
1516547696.69 1399391 39.920 126120.334 116000 1 5 1 0.922 2776948 0.000 8.575 44052480.000 342085632.000 1516547695.502 1516547692.933 78500 116000 216000 316000 616000 1216000
1516547696.79 1384530 39.720 126120.334 116000 1 5 1 0.922 2776948 0.000 8.575 44052480.000 342085632.000 1516547695.502 1516547692.933 78500 116000 216000 316000 616000 1216000
1516547696.89 1384530 39.720 126120.334 116000 1 5 1 0.922 2776948 10.000 8.575 44052480.000 342085632.000 1516547695.502 1516547692.933 78500 116000 216000 316000 616000 1216000
1516547697.00 1371742 39.520 126120.334 116000 1 5 1 0.922 2776948 0.000 8.575 44052480.000 342085632.000 1516547695.502 1516547692.933 78500 116000 216000 316000 616000 1216000
1516547697.10 1371742 39.520 126120.334 116000 1 5 1 0.922 2776948 0.000 8.575 44052480.000 342085632.000 1516547695.502 1516547692.933 78500 116000 216000 316000 616000 1216000
1516547697.20 1360280 39.360 126120.334 116000 1 5 1 0.922 2776948 10.000 8.575 44052480.000 342085632.000 1516547695.502 1516547692.933 78500 116000 216000 316000 616000 1216000
1516547697.30 1348116 39.200 126120.334 116000 1 5 1 0.922 2776948 0.000 8.575 44052480.000 342085632.000 1516547695.502 1516547692.933 78500 116000 216000 316000 616000 1216000
1516547697.41 1348116 39.200 126120.334 116000 1 5 1 0.922 2776948 0.000 8.575 44052480.000 342085632.000 1516547695.502 1516547692.933 78500 116000 216000 316000 616000 1216000
1516547697.51 1528189 43.080 103399.187 116000 1 5 1 0.922 2983936 9.091 8.583 44052480.000 342085632.000 1516547695.502 1516547697.504 78500 116000 216000 316000 616000 1216000
1516547697.61 1528189 43.080 103399.187 116000 1 5 1 0.922 2983936 0.000 8.583 44093440.000 342085632.000 1516547695.502 1516547697.504 78500 116000 216000 316000 616000 1216000
1516547697.71 1520239 42.920 103399.187 116000 1 5 1 0.922 2983936 0.000 8.583 44093440.000 342085632.000 1516547695.502 1516547697.504 78500 116000 216000 316000 616000 1216000
1516547697.82 1511162 42.760 103399.187 116000 1 5 1 0.922 2983936 10.000 8.583 44093440.000 342085632.000 1516547695.502 1516547697.504 78500 116000 216000 316000 616000 1216000
1516547697.92 1511162 42.760 103399.187 116000 1 5 1 0.922 2983936 0.000 8.583 44093440.000 342085632.000 1516547695.502 1516547697.504 78500 116000 216000 316000 616000 1216000
1516547698.02 1504147 42.640 103399.187 116000 1 5 1 0.922 2983936 0.000 8.583 44093440.000 342085632.000 1516547695.502 1516547697.504 78500 116000 216000 316000 616000 1216000
1516547698.12 1498850 42.480 103399.187 116000 1 5 1 0.922 2983936 9.091 8.583 44093440.000 342085632.000 1516547695.502 1516547697.504 78500 116000 216000 316000 616000 1216000
1516547698.22 1492076 42.320 103399.187 116000 1 5 1 0.922 2983936 0.000 8.583 44093440.000 342085632.000 1516547695.502 1516547697.504 78500 116000 216000 316000 616000 1216000
1516547698.33 1492076 42.320 103399.187 116000 1 5 1 0.922 2983936 0.000 8.583 44093440.000 342085632.000 1516547695.502 1516547697.504 78500 116000 216000 316000 616000 1216000
1516547698.43 1486050 42.160 103399.187 116000 1 5 1 0.922 2983936 10.000 8.583 44093440.000 342085632.000 1516547695.502 1516547697.504 78500 116000 216000 316000 616000 1216000
1516547698.53 1486050 42.160 103399.187 116000 1 5 1 0.922 2983936 0.000 8.583 44093440.000 342085632.000 1516547695.502 1516547697.504 78500 116000 216000 316000 616000 1216000
1516547698.63 1480436 42.000 103399.187 116000 1 5 1 0.922 2983936 0.000 8.583 44093440.000 342085632.000 1516547698.591 1516547697.504 78500 116000 216000 316000 616000 1216000
1516547698.74 1474399 41.840 103399.187 116000 1 5 1 0.922 2983936 10.000 8.583 44093440.000 342085632.000 1516547698.591 1516547697.504 78500 116000 216000 316000 616000 1216000
1516547698.84 1474399 41.840 103399.187 116000 1 5 1 0.922 2983936 0.000 8.583 44093440.000 342085632.000 1516547698.591 1516547697.504 78500 116000 216000 316000 616000 1216000
1516547698.94 1469144 41.680 103399.187 116000 1 5 1 0.922 2983936 0.000 8.583 44093440.000 342085632.000 1516547698.591 1516547697.504 78500 116000 216000 316000 616000 1216000
1516547699.04 1463556 41.520 103399.187 116000 1 5 1 0.922 2983936 10.000 8.583 44093440.000 342085632.000 1516547698.591 1516547697.504 78500 116000 216000 316000 616000 1216000
1516547699.15 1463556 41.520 103399.187 116000 1 5 1 0.922 2983936 0.000 8.583 44093440.000 342085632.000 1516547698.591 1516547697.504 78500 116000 216000 316000 616000 1216000
1516547699.25 1458110 41.360 103399.187 116000 1 5 1 0.922 2983936 0.000 8.583 44093440.000 342085632.000 1516547698.591 1516547697.504 78500 116000 216000 316000 616000 1216000
1516547699.35 1453774 41.320 103399.187 116000 1 5 1 0.922 2983936 0.000 8.583 44093440.000 342085632.000 1516547698.591 1516547697.504 78500 116000 216000 316000 616000 1216000
1516547699.45 1449916 41.160 103399.187 116000 1 5 1 0.922 2983936 0.000 8.583 44093440.000 342085632.000 1516547698.591 1516547697.504 78500 116000 216000 316000 616000 1216000
1516547699.55 1445580 41.000 103399.187 116000 1 5 1 0.922 2983936 10.000 8.583 44093440.000 342085632.000 1516547698.591 1516547697.504 78500 116000 216000 316000 616000 1216000
1516547699.66 1445580 41.000 103399.187 116000 1 5 1 0.922 2983936 0.000 8.583 44093440.000 342085632.000 1516547698.591 1516547697.504 78500 116000 216000 316000 616000 1216000
1516547699.76 1438266 40.920 103399.187 116000 1 5 1 0.922 2983936 20.000 8.583 44093440.000 342085632.000 1516547698.591 1516547697.504 78500 116000 216000 316000 616000 1216000
1516547699.86 1436105 40.760 103399.187 116000 1 5 1 0.922 2983936 0.000 8.583 44093440.000 342085632.000 1516547698.591 1516547697.504 78500 116000 216000 316000 616000 1216000
1516547699.96 1596442 44.600 140626.315 116000 1 5 1 0.922 3166296 0.000 8.636 44363776.000 342085632.000 1516547698.591 1516547699.888 78500 116000 216000 316000 616000 1216000
1516547700.07 1596442 44.600 140626.315 116000 1 5 1 0.922 3166296 0.000 8.636 44363776.000 342085632.000 1516547698.591 1516547699.888 78500 116000 216000 316000 616000 1216000
1516547700.17 1591997 44.480 140626.315 116000 1 5 1 0.922 3166296 10.000 8.636 44363776.000 342085632.000 1516547698.591 1516547699.888 78500 116000 216000 316000 616000 1216000
1516547700.27 1588063 44.320 140626.315 116000 1 5 1 0.922 3166296 0.000 8.636 44363776.000 342085632.000 1516547698.591 1516547699.888 78500 116000 216000 316000 616000 1216000
1516547700.37 1588063 44.320 140626.315 116000 1 5 1 0.922 3166296 0.000 8.636 44363776.000 342085632.000 1516547698.591 1516547699.888 78500 116000 216000 316000 616000 1216000
1516547700.47 1583947 44.160 140626.315 116000 1 5 1 0.922 3166296 0.000 8.636 44363776.000 342085632.000 1516547698.591 1516547699.888 78500 116000 216000 316000 616000 1216000
1516547700.58 1580547 44.040 140626.315 116000 1 5 1 0.922 3166296 0.000 8.636 44363776.000 342085632.000 1516547698.591 1516547699.888 78500 116000 216000 316000 616000 1216000
1516547700.68 1577118 43.960 140626.315 116000 1 5 1 0.922 3166296 10.000 8.636 44363776.000 342085632.000 1516547698.591 1516547699.888 78500 116000 216000 316000 616000 1216000
1516547700.78 1573330 43.800 140626.315 116000 1 5 1 0.922 3166296 0.000 8.636 44363776.000 342085632.000 1516547698.591 1516547699.888 78500 116000 216000 316000 616000 1216000
1516547700.88 1573330 43.800 140626.315 116000 1 5 1 0.922 3166296 0.000 8.636 44363776.000 342085632.000 1516547698.591 1516547699.888 78500 116000 216000 316000 616000 1216000
1516547700.99 1572666 43.640 140626.315 116000 1 5 1 0.922 3166296 9.091 8.636 44363776.000 342085632.000 1516547698.591 1516547699.888 78500 116000 216000 316000 616000 1216000
1516547701.09 1571686 43.480 140626.315 116000 1 5 1 0.922 3166296 10.000 8.636 44363776.000 342085632.000 1516547698.591 1516547699.888 78500 116000 216000 316000 616000 1216000
1516547701.19 1571686 43.480 140626.315 116000 1 5 1 0.922 3166296 0.000 8.636 44363776.000 342085632.000 1516547698.591 1516547699.888 78500 116000 216000 316000 616000 1216000
1516547701.29 1569849 43.320 140626.315 116000 1 5 1 0.922 3166296 0.000 8.636 44363776.000 342085632.000 1516547698.591 1516547699.888 78500 116000 216000 316000 616000 1216000
1516547701.39 1567292 43.160 140626.315 116000 1 5 1 0.922 3166296 0.000 8.636 44363776.000 342085632.000 1516547698.591 1516547699.888 78500 116000 216000 316000 616000 1216000
1516547701.50 1567292 43.160 140626.315 116000 1 5 1 0.922 3166296 0.000 8.636 44363776.000 342085632.000 1516547698.591 1516547699.888 78500 116000 216000 316000 616000 1216000
1516547701.60 1564121 43.000 140626.315 116000 1 5 1 0.922 3166296 0.000 8.636 44363776.000 342085632.000 1516547698.591 1516547699.888 78500 116000 216000 316000 616000 1216000
1516547701.70 1560813 42.840 140626.315 116000 1 5 1 0.922 3166296 10.000 8.636 44363776.000 342085632.000 1516547698.591 1516547699.888 78500 116000 216000 316000 616000 1216000
1516547701.80 1560813 42.840 140626.315 116000 1 5 1 0.922 3166296 0.000 8.636 44363776.000 342085632.000 1516547698.591 1516547699.888 78500 116000 216000 316000 616000 1216000
1516547701.91 1557550 42.720 140626.315 116000 1 5 1 0.922 3166296 0.000 8.636 44363776.000 342085632.000 1516547698.591 1516547699.888 78500 116000 216000 316000 616000 1216000
1516547702.01 1554981 42.560 140626.315 116000 1 5 1 0.922 3166296 10.000 8.636 44363776.000 342085632.000 1516547698.591 1516547699.888 78500 116000 216000 316000 616000 1216000
1516547702.11 1554981 42.560 140626.315 116000 1 5 1 0.922 3166296 0.000 8.636 44363776.000 342085632.000 1516547698.591 1516547699.888 78500 116000 216000 316000 616000 1216000
1516547702.21 1551076 42.400 140626.315 116000 1 5 1 0.922 3166296 0.000 8.636 44363776.000 342085632.000 1516547698.591 1516547699.888 78500 116000 216000 316000 616000 1216000
1516547702.31 1546329 42.320 140626.315 116000 1 5 1 0.922 3166296 20.000 8.636 44363776.000 342085632.000 1516547698.591 1516547699.888 78500 116000 216000 316000 616000 1216000
1516547702.42 1543393 42.200 140626.315 116000 1 5 1 0.922 3166296 0.000 8.636 44363776.000 342085632.000 1516547698.591 1516547699.888 78500 116000 216000 316000 616000 1216000
1516547702.52 1538751 42.080 140626.315 116000 1 5 1 0.922 3166296 0.000 8.636 44363776.000 342085632.000 1516547698.591 1516547699.888 78500 116000 216000 316000 616000 1216000
1516547702.62 1532489 42.000 140626.315 116000 1 5 1 0.922 3166296 0.000 8.636 44363776.000 342085632.000 1516547698.591 1516547699.888 78500 116000 216000 316000 616000 1216000
1516547702.72 1529871 41.840 140626.315 116000 1 5 1 0.922 3166296 9.091 8.636 44363776.000 342085632.000 1516547698.591 1516547699.888 78500 116000 216000 316000 616000 1216000
1516547702.83 1529871 41.840 140626.315 116000 1 5 1 0.922 3166296 0.000 8.636 44363776.000 342085632.000 1516547698.591 1516547699.888 78500 116000 216000 316000 616000 1216000
1516547702.93 1524663 41.760 140626.315 116000 1 5 1 0.922 3166296 0.000 8.636 44363776.000 342085632.000 1516547698.591 1516547699.888 78500 116000 216000 316000 616000 1216000
1516547703.03 1520667 41.640 140626.315 116000 1 5 1 0.922 3166296 0.000 8.636 44363776.000 342085632.000 1516547698.591 1516547699.888 78500 116000 216000 316000 616000 1216000
1516547703.13 1517726 41.480 140626.315 116000 1 5 1 0.922 3166296 0.000 8.636 44363776.000 342085632.000 1516547698.591 1516547699.888 78500 116000 216000 316000 616000 1216000
1516547703.23 1513258 41.320 140626.315 116000 1 5 1 0.922 3166296 0.000 8.636 44363776.000 342085632.000 1516547698.591 1516547699.888 78500 116000 216000 316000 616000 1216000
1516547703.34 1513258 41.320 140626.315 116000 1 5 1 0.922 3166296 0.000 8.636 44363776.000 342085632.000 1516547698.591 1516547699.888 78500 116000 216000 316000 616000 1216000
1516547703.44 1510230 41.200 140626.315 116000 1 5 1 0.922 3166296 10.000 8.636 44363776.000 342085632.000 1516547703.360 1516547699.888 78500 116000 216000 316000 616000 1216000
1516547703.54 1495034 41.040 140626.315 116000 1 5 1 0.922 3166296 0.000 8.636 44367872.000 342085632.000 1516547703.360 1516547699.888 78500 116000 216000 316000 616000 1216000
1516547703.64 1495034 41.040 140626.315 116000 1 5 1 0.922 3166296 9.091 8.636 44367872.000 342085632.000 1516547703.360 1516547699.888 78500 116000 216000 316000 616000 1216000
1516547703.75 1494001 40.880 140626.315 116000 1 5 1 0.922 3166296 0.000 8.636 44367872.000 342085632.000 1516547703.360 1516547699.888 78500 116000 216000 316000 616000 1216000
1516547703.85 1492825 40.760 140626.315 116000 1 5 1 0.922 3166296 0.000 8.637 44367872.000 342085632.000 1516547703.360 1516547699.888 78500 116000 216000 316000 616000 1216000
1516547703.95 1491669 40.600 140626.315 116000 1 5 1 0.922 3166296 0.000 8.637 44371968.000 342085632.000 1516547703.360 1516547699.888 78500 116000 216000 316000 616000 1216000
1516547704.05 1491669 40.600 140626.315 116000 1 5 1 0.922 3166296 9.091 8.637 44371968.000 342085632.000 1516547703.360 1516547699.888 78500 116000 216000 316000 616000 1216000
1516547704.16 1489730 40.520 140626.315 116000 1 5 1 0.922 3166296 0.000 8.637 44371968.000 342085632.000 1516547703.360 1516547699.888 78500 116000 216000 316000 616000 1216000
1516547704.26 1488141 40.360 140626.315 116000 1 5 1 0.922 3166296 10.000 8.637 44371968.000 342085632.000 1516547703.360 1516547699.888 78500 116000 216000 316000 616000 1216000
1516547704.36 1486467 40.200 140626.315 116000 1 5 1 0.922 3166296 0.000 8.637 44371968.000 342085632.000 1516547703.360 1516547699.888 78500 116000 216000 316000 616000 1216000
1516547704.46 1486467 40.200 140626.315 116000 1 5 1 0.922 3166296 0.000 8.637 44371968.000 342085632.000 1516547703.360 1516547699.888 78500 116000 216000 316000 616000 1216000
1516547704.57 1485195 40.040 140626.315 116000 1 5 1 0.922 3166296 0.000 8.637 44371968.000 342085632.000 1516547703.360 1516547699.888 78500 116000 216000 316000 616000 1216000
1516547704.67 1643252 43.960 137592.023 116000 1 5 1 0.922 3344708 20.000 8.691 44642304.000 342085632.000 1516547703.360 1516547704.656 78500 116000 216000 316000 616000 1216000
1516547704.77 1641157 43.920 137592.023 116000 1 5 1 0.922 3344708 0.000 8.691 44646400.000 342085632.000 1516547703.360 1516547704.656 78500 116000 216000 316000 616000 1216000
1516547704.87 1635634 43.800 137592.023 116000 1 5 1 0.922 3344708 0.000 8.691 44646400.000 342085632.000 1516547703.360 1516547704.656 78500 116000 216000 316000 616000 1216000
1516547704.97 1632588 43.640 137592.023 116000 1 5 1 0.922 3344708 0.000 8.691 44646400.000 342085632.000 1516547703.360 1516547704.656 78500 116000 216000 316000 616000 1216000
1516547705.07 1628984 43.480 137592.023 116000 1 5 1 0.922 3344708 0.000 8.691 44646400.000 342085632.000 1516547703.360 1516547704.656 78500 116000 216000 316000 616000 1216000
1516547705.17 1628984 43.480 137592.023 116000 1 5 1 0.922 3344708 0.000 8.691 44646400.000 342085632.000 1516547703.360 1516547704.656 78500 116000 216000 316000 616000 1216000
1516547705.28 1626132 43.320 137592.023 116000 1 5 1 0.922 3344708 10.000 8.691 44646400.000 342085632.000 1516547703.360 1516547704.656 78500 116000 216000 316000 616000 1216000
1516547705.38 1623183 43.160 137592.023 116000 1 5 1 0.922 3344708 0.000 8.691 44646400.000 342085632.000 1516547703.360 1516547704.656 78500 116000 216000 316000 616000 1216000
1516547705.48 1623183 43.160 137592.023 116000 1 5 1 0.922 3344708 0.000 8.691 44646400.000 342085632.000 1516547703.360 1516547704.656 78500 116000 216000 316000 616000 1216000
1516547705.58 1620192 43.000 137592.023 116000 1 5 1 0.922 3344708 0.000 8.691 44646400.000 342085632.000 1516547703.360 1516547704.656 78500 116000 216000 316000 616000 1216000
1516547705.68 1620192 43.000 137592.023 116000 1 5 1 0.922 3344708 10.000 8.691 44646400.000 342085632.000 1516547703.360 1516547704.656 78500 116000 216000 316000 616000 1216000
1516547705.78 1617041 42.840 137592.023 116000 1 5 1 0.922 3344708 0.000 8.691 44646400.000 342085632.000 1516547703.360 1516547704.656 78500 116000 216000 316000 616000 1216000
1516547705.89 1613743 42.680 137592.023 116000 1 5 1 0.922 3344708 10.000 8.691 44646400.000 342085632.000 1516547703.360 1516547704.656 78500 116000 216000 316000 616000 1216000
1516547705.99 1613743 42.680 137592.023 116000 1 5 1 0.922 3344708 0.000 8.691 44646400.000 342085632.000 1516547703.360 1516547704.656 78500 116000 216000 316000 616000 1216000
1516547706.09 1610278 42.520 137592.023 116000 1 5 1 0.922 3344708 0.000 8.691 44646400.000 342085632.000 1516547703.360 1516547704.656 78500 116000 216000 316000 616000 1216000
1516547706.19 1606828 42.360 137592.023 116000 1 5 1 0.922 3344708 9.091 8.691 44646400.000 342085632.000 1516547703.360 1516547704.656 78500 116000 216000 316000 616000 1216000
1516547706.29 1606828 42.360 137592.023 116000 1 5 1 0.922 3344708 0.000 8.691 44646400.000 342085632.000 1516547703.360 1516547704.656 78500 116000 216000 316000 616000 1216000
1516547706.40 1603095 42.200 137592.023 116000 1 5 1 0.922 3344708 0.000 8.691 44646400.000 342085632.000 1516547703.360 1516547704.656 78500 116000 216000 316000 616000 1216000
1516547706.50 1599511 42.040 137592.023 116000 1 5 1 0.922 3344708 0.000 8.691 44646400.000 342085632.000 1516547703.360 1516547704.656 78500 116000 216000 316000 616000 1216000
1516547706.60 1599511 42.040 137592.023 116000 1 5 1 0.922 3344708 10.000 8.691 44646400.000 342085632.000 1516547703.360 1516547704.656 78500 116000 216000 316000 616000 1216000
1516547706.70 1596119 41.960 137592.023 116000 1 5 1 0.922 3344708 0.000 8.691 44646400.000 342085632.000 1516547703.360 1516547704.656 78500 116000 216000 316000 616000 1216000
1516547706.81 1594121 41.840 137592.023 116000 1 5 1 0.922 3344708 0.000 8.691 44646400.000 342085632.000 1516547703.360 1516547704.656 78500 116000 216000 316000 616000 1216000
1516547706.91 1591256 41.680 137592.023 116000 1 5 1 0.922 3344708 10.000 8.691 44646400.000 342085632.000 1516547703.360 1516547704.656 78500 116000 216000 316000 616000 1216000
1516547707.01 1591256 41.680 137592.023 116000 1 5 1 0.922 3344708 0.000 8.691 44646400.000 342085632.000 1516547703.360 1516547704.656 78500 116000 216000 316000 616000 1216000
1516547707.11 1587680 41.520 137592.023 116000 1 5 1 0.922 3344708 0.000 8.691 44646400.000 342085632.000 1516547703.360 1516547704.656 78500 116000 216000 316000 616000 1216000
1516547707.22 1583247 41.440 137592.023 116000 1 5 1 0.922 3344708 10.000 8.691 44646400.000 342085632.000 1516547703.360 1516547704.656 78500 116000 216000 316000 616000 1216000
1516547707.32 1580549 41.280 137592.023 116000 1 5 1 0.922 3344708 0.000 8.691 44646400.000 342085632.000 1516547703.360 1516547704.656 78500 116000 216000 316000 616000 1216000
1516547707.42 1576046 41.120 137592.023 116000 1 5 1 0.922 3344708 0.000 8.691 44646400.000 342085632.000 1516547707.328 1516547704.656 78500 116000 216000 316000 616000 1216000
1516547707.52 1576046 41.120 137592.023 116000 1 5 1 0.922 3344708 9.091 8.691 44646400.000 342085632.000 1516547707.328 1516547704.656 78500 116000 216000 316000 616000 1216000
1516547707.63 1571290 40.960 137592.023 116000 1 5 1 0.922 3344708 0.000 8.691 44646400.000 342085632.000 1516547707.328 1516547704.656 78500 116000 216000 316000 616000 1216000
1516547707.73 1571290 40.960 137592.023 116000 1 5 1 0.922 3344708 0.000 8.691 44646400.000 342085632.000 1516547707.328 1516547704.656 78500 116000 216000 316000 616000 1216000
1516547707.83 1566603 40.840 137592.023 116000 1 5 1 0.922 3344708 0.000 8.691 44646400.000 342085632.000 1516547707.328 1516547704.656 78500 116000 216000 316000 616000 1216000
1516547707.93 1562803 40.680 137592.023 116000 1 5 1 0.922 3344708 9.091 8.691 44646400.000 342085632.000 1516547707.328 1516547704.656 78500 116000 216000 316000 616000 1216000
1516547708.04 1558159 40.560 137592.023 116000 1 5 1 0.922 3344708 0.000 8.691 44646400.000 342085632.000 1516547707.328 1516547704.656 78500 116000 216000 316000 616000 1216000
1516547708.14 1553793 40.440 137592.023 116000 1 5 1 0.922 3344708 0.000 8.691 44646400.000 342085632.000 1516547707.328 1516547704.656 78500 116000 216000 316000 616000 1216000
1516547708.24 1553793 40.440 137592.023 116000 1 5 1 0.922 3344708 10.000 8.691 44646400.000 342085632.000 1516547707.328 1516547704.656 78500 116000 216000 316000 616000 1216000
1516547708.34 1549477 40.280 137592.023 116000 1 5 1 0.922 3344708 9.091 8.691 44646400.000 342085632.000 1516547707.328 1516547704.656 78500 116000 216000 316000 616000 1216000
1516547708.45 1544624 40.120 137592.023 116000 1 5 1 0.922 3344708 0.000 8.691 44646400.000 342085632.000 1516547707.328 1516547704.656 78500 116000 216000 316000 616000 1216000
1516547708.55 1544624 40.120 137592.023 116000 1 5 1 0.922 3344708 10.000 8.691 44646400.000 342085632.000 1516547707.328 1516547704.656 78500 116000 216000 316000 616000 1216000
1516547708.65 1540033 40.000 137592.023 116000 1 5 1 0.922 3344708 0.000 8.691 44646400.000 342085632.000 1516547707.328 1516547704.656 78500 116000 216000 316000 616000 1216000
1516547708.75 1535593 39.920 137592.023 116000 1 5 1 0.922 3344708 0.000 8.691 44646400.000 342085632.000 1516547707.328 1516547704.656 78500 116000 216000 316000 616000 1216000
1516547708.86 1525968 39.800 137592.023 116000 1 5 1 0.922 3344708 0.000 8.691 44646400.000 342085632.000 1516547707.328 1516547704.656 78500 116000 216000 316000 616000 1216000
1516547708.96 1522068 39.720 137592.023 116000 1 5 1 0.922 3344708 0.000 8.691 44646400.000 342085632.000 1516547707.328 1516547704.656 78500 116000 216000 316000 616000 1216000
1516547709.06 1519841 39.600 137592.023 116000 1 5 1 0.922 3344708 10.000 8.691 44646400.000 342085632.000 1516547707.328 1516547704.656 78500 116000 216000 316000 616000 1216000
1516547709.16 1701486 43.400 109831.962 116000 1 5 1 0.922 3545304 0.000 8.694 44646400.000 342220800.000 1516547707.328 1516547709.155 78500 116000 216000 316000 616000 1216000
1516547709.27 1697778 43.240 109831.962 116000 1 5 1 0.922 3545304 0.000 8.694 44662784.000 342220800.000 1516547707.328 1516547709.155 78500 116000 216000 316000 616000 1216000
1516547709.37 1697778 43.240 109831.962 116000 1 5 1 0.922 3545304 10.000 8.694 44662784.000 342220800.000 1516547707.328 1516547709.155 78500 116000 216000 316000 616000 1216000
1516547709.47 1693834 43.120 109831.962 116000 1 5 1 0.922 3545304 0.000 8.694 44662784.000 342220800.000 1516547707.328 1516547709.155 78500 116000 216000 316000 616000 1216000
1516547709.57 1690289 42.960 109831.962 116000 1 5 1 0.922 3545304 0.000 8.694 44662784.000 342220800.000 1516547707.328 1516547709.155 78500 116000 216000 316000 616000 1216000
1516547709.67 1690289 42.960 109831.962 116000 1 5 1 0.922 3545304 10.000 8.694 44662784.000 342220800.000 1516547707.328 1516547709.155 78500 116000 216000 316000 616000 1216000
1516547709.77 1686246 42.800 109831.962 116000 1 5 1 0.922 3545304 0.000 8.694 44662784.000 342220800.000 1516547707.328 1516547709.155 78500 116000 216000 316000 616000 1216000
1516547709.88 1681895 42.640 109831.962 116000 1 5 1 0.922 3545304 10.000 8.694 44662784.000 342220800.000 1516547707.328 1516547709.155 78500 116000 216000 316000 616000 1216000
1516547709.98 1681895 42.640 109831.962 116000 1 5 1 0.922 3545304 0.000 8.694 44662784.000 342220800.000 1516547707.328 1516547709.155 78500 116000 216000 316000 616000 1216000
1516547710.08 1678297 42.520 109831.962 116000 1 5 1 0.922 3545304 0.000 8.694 44662784.000 342220800.000 1516547707.328 1516547709.155 78500 116000 216000 316000 616000 1216000
1516547710.18 1675322 42.360 109831.962 116000 1 5 1 0.922 3545304 0.000 8.694 44662784.000 342220800.000 1516547707.328 1516547709.155 78500 116000 216000 316000 616000 1216000
1516547710.28 1675322 42.360 109831.962 116000 1 5 1 0.922 3545304 0.000 8.694 44662784.000 342220800.000 1516547707.328 1516547709.155 78500 116000 216000 316000 616000 1216000
1516547710.38 1671576 42.200 109831.962 116000 1 5 1 0.922 3545304 10.000 8.694 44662784.000 342220800.000 1516547707.328 1516547709.155 78500 116000 216000 316000 616000 1216000
1516547710.49 1668548 42.120 109831.962 116000 1 5 1 0.922 3545304 0.000 8.694 44662784.000 342220800.000 1516547707.328 1516547709.155 78500 116000 216000 316000 616000 1216000
1516547710.59 1667266 41.960 109831.962 116000 1 5 1 0.922 3545304 0.000 8.694 44662784.000 342220800.000 1516547707.328 1516547709.155 78500 116000 216000 316000 616000 1216000
1516547710.69 1667266 41.960 109831.962 116000 1 5 1 0.922 3545304 0.000 8.694 44662784.000 342220800.000 1516547707.328 1516547709.155 78500 116000 216000 316000 616000 1216000
1516547710.79 1649972 41.800 109831.962 116000 1 5 1 0.922 3545304 9.091 8.694 44662784.000 342220800.000 1516547710.737 1516547709.155 78500 116000 216000 316000 616000 1216000
1516547710.90 1642527 41.640 109831.962 116000 1 5 1 0.922 3545304 0.000 8.694 44662784.000 342220800.000 1516547710.737 1516547709.155 78500 116000 216000 316000 616000 1216000
1516547711.00 1642527 41.640 109831.962 116000 1 5 1 0.922 3545304 10.000 8.694 44662784.000 342220800.000 1516547710.737 1516547709.155 78500 116000 216000 316000 616000 1216000
1516547711.10 1634497 41.480 109831.962 116000 1 5 1 0.922 3545304 0.000 8.694 44662784.000 342220800.000 1516547710.737 1516547709.155 78500 116000 216000 316000 616000 1216000
1516547711.20 1628833 41.360 109831.962 116000 1 5 1 0.922 3545304 0.000 8.694 44662784.000 342220800.000 1516547710.737 1516547709.155 78500 116000 216000 316000 616000 1216000
1516547711.31 1624679 41.240 109831.962 116000 1 5 1 0.922 3545304 18.182 8.694 44662784.000 342220800.000 1516547710.737 1516547709.155 78500 116000 216000 316000 616000 1216000
1516547711.41 1624679 41.240 109831.962 116000 1 5 1 0.922 3545304 0.000 8.694 44662784.000 342220800.000 1516547710.737 1516547709.155 78500 116000 216000 316000 616000 1216000
1516547711.51 1620463 41.080 109831.962 116000 1 5 1 0.922 3545304 0.000 8.694 44662784.000 342220800.000 1516547710.737 1516547709.155 78500 116000 216000 316000 616000 1216000
1516547711.61 1615597 40.920 109831.962 116000 1 5 1 0.922 3545304 0.000 8.694 44662784.000 342220800.000 1516547710.737 1516547709.155 78500 116000 216000 316000 616000 1216000
1516547711.71 1615597 40.920 109831.962 116000 1 5 1 0.922 3545304 0.000 8.694 44662784.000 342220800.000 1516547710.737 1516547709.155 78500 116000 216000 316000 616000 1216000
1516547711.82 1605055 40.680 109831.962 116000 1 5 1 0.922 3545304 10.000 8.694 44662784.000 342220800.000 1516547710.737 1516547709.155 78500 116000 216000 316000 616000 1216000
1516547711.92 1605055 40.680 109831.962 116000 1 5 1 0.922 3545304 0.000 8.694 44662784.000 342220800.000 1516547710.737 1516547709.155 78500 116000 216000 316000 616000 1216000
1516547712.02 1598420 40.560 109831.962 116000 1 5 1 0.922 3545304 0.000 8.694 44662784.000 342220800.000 1516547710.737 1516547709.155 78500 116000 216000 316000 616000 1216000
1516547712.12 1592903 40.440 109831.962 116000 1 5 1 0.922 3545304 0.000 8.694 44662784.000 342220800.000 1516547710.737 1516547709.155 78500 116000 216000 316000 616000 1216000
1516547712.23 1587998 40.280 109831.962 116000 1 5 1 0.922 3545304 9.091 8.694 44662784.000 342220800.000 1516547710.737 1516547709.155 78500 116000 216000 316000 616000 1216000
1516547712.33 1587998 40.280 109831.962 116000 1 5 1 0.922 3545304 0.000 8.694 44662784.000 342220800.000 1516547710.737 1516547709.155 78500 116000 216000 316000 616000 1216000
1516547712.43 1580117 40.080 109831.962 116000 1 5 1 0.922 3545304 9.091 8.694 44662784.000 342220800.000 1516547710.737 1516547709.155 78500 116000 216000 316000 616000 1216000
1516547712.53 1580117 40.080 109831.962 116000 1 5 1 0.922 3545304 0.000 8.694 44662784.000 342220800.000 1516547710.737 1516547709.155 78500 116000 216000 316000 616000 1216000
1516547712.63 1574330 39.920 109831.962 116000 1 5 1 0.922 3545304 0.000 8.694 44662784.000 342220800.000 1516547710.737 1516547709.155 78500 116000 216000 316000 616000 1216000
1516547712.73 1569777 39.880 109831.962 116000 1 5 1 0.922 3545304 0.000 8.694 44662784.000 342220800.000 1516547710.737 1516547709.155 78500 116000 216000 316000 616000 1216000
1516547712.84 1553320 39.720 109831.962 116000 1 5 1 0.922 3545304 0.000 8.694 44662784.000 342220800.000 1516547710.737 1516547709.155 78500 116000 216000 316000 616000 1216000
1516547712.94 1764699 43.640 108540.445 116000 1 5 1 0.922 3781620 10.000 8.711 44662784.000 342220800.000 1516547710.737 1516547712.914 78500 116000 216000 316000 616000 1216000
1516547713.04 1764699 43.640 108540.445 116000 1 5 1 0.922 3781620 0.000 8.711 44748800.000 342220800.000 1516547710.737 1516547712.914 78500 116000 216000 316000 616000 1216000
1516547713.14 1758809 43.480 108540.445 116000 1 5 1 0.922 3781620 0.000 8.711 44748800.000 342220800.000 1516547710.737 1516547712.914 78500 116000 216000 316000 616000 1216000
1516547713.25 1758809 43.480 108540.445 116000 1 5 1 0.922 3781620 10.000 8.711 44748800.000 342220800.000 1516547710.737 1516547712.914 78500 116000 216000 316000 616000 1216000
1516547713.35 1753546 43.320 108540.445 116000 1 5 1 0.922 3781620 0.000 8.711 44748800.000 342220800.000 1516547710.737 1516547712.914 78500 116000 216000 316000 616000 1216000
1516547713.45 1743326 43.240 108540.445 116000 1 5 1 0.922 3781620 0.000 8.711 44748800.000 342220800.000 1516547710.737 1516547712.914 78500 116000 216000 316000 616000 1216000
1516547713.55 1740176 43.080 108540.445 116000 1 5 1 0.922 3781620 10.000 8.711 44748800.000 342220800.000 1516547710.737 1516547712.914 78500 116000 216000 316000 616000 1216000
1516547713.66 1733077 42.960 108540.445 116000 1 5 1 0.922 3781620 0.000 8.711 44748800.000 342220800.000 1516547710.737 1516547712.914 78500 116000 216000 316000 616000 1216000
1516547713.76 1733077 42.960 108540.445 116000 1 5 1 0.922 3781620 0.000 8.711 44748800.000 342220800.000 1516547710.737 1516547712.914 78500 116000 216000 316000 616000 1216000
1516547713.86 1724331 42.800 108540.445 116000 1 5 1 0.922 3781620 10.000 8.711 44748800.000 342220800.000 1516547710.737 1516547712.914 78500 116000 216000 316000 616000 1216000
1516547713.96 1720715 42.720 108540.445 116000 1 5 1 0.922 3781620 9.091 8.711 44748800.000 342220800.000 1516547710.737 1516547712.914 78500 116000 216000 316000 616000 1216000
1516547714.06 1717194 42.560 108540.445 116000 1 5 1 0.922 3781620 0.000 8.711 44748800.000 342220800.000 1516547710.737 1516547712.914 78500 116000 216000 316000 616000 1216000
1516547714.17 1717194 42.560 108540.445 116000 1 5 1 0.922 3781620 0.000 8.711 44748800.000 342220800.000 1516547710.737 1516547712.914 78500 116000 216000 316000 616000 1216000
1516547714.27 1710277 42.400 108540.445 116000 1 5 1 0.922 3781620 0.000 8.711 44748800.000 342220800.000 1516547710.737 1516547712.914 78500 116000 216000 316000 616000 1216000
1516547714.37 1703211 42.320 108540.445 116000 1 5 1 0.922 3781620 9.091 8.711 44748800.000 342220800.000 1516547710.737 1516547712.914 78500 116000 216000 316000 616000 1216000
1516547714.47 1699201 42.200 108540.445 116000 1 5 1 0.922 3781620 0.000 8.711 44748800.000 342220800.000 1516547710.737 1516547712.914 78500 116000 216000 316000 616000 1216000
1516547714.58 1695267 42.080 108540.445 116000 1 5 1 0.922 3781620 10.000 8.711 44748800.000 342220800.000 1516547714.545 1516547712.914 78500 116000 216000 316000 616000 1216000
1516547714.68 1692214 41.920 108540.445 116000 1 5 1 0.922 3781620 0.000 8.711 44748800.000 342220800.000 1516547714.545 1516547712.914 78500 116000 216000 316000 616000 1216000
1516547714.78 1692214 41.920 108540.445 116000 1 5 1 0.922 3781620 0.000 8.711 44748800.000 342220800.000 1516547714.545 1516547712.914 78500 116000 216000 316000 616000 1216000
1516547714.88 1690153 41.760 108540.445 116000 1 5 1 0.922 3781620 0.000 8.711 44748800.000 342220800.000 1516547714.545 1516547712.914 78500 116000 216000 316000 616000 1216000
1516547714.99 1676947 41.600 108540.445 116000 1 5 1 0.922 3781620 9.091 8.711 44752896.000 342220800.000 1516547714.545 1516547712.914 78500 116000 216000 316000 616000 1216000
1516547715.09 1676947 41.600 108540.445 116000 1 5 1 0.922 3781620 0.000 8.711 44752896.000 342220800.000 1516547714.545 1516547712.914 78500 116000 216000 316000 616000 1216000
1516547715.19 1672075 41.440 108540.445 116000 1 5 1 0.922 3781620 0.000 8.711 44752896.000 342220800.000 1516547714.545 1516547712.914 78500 116000 216000 316000 616000 1216000
1516547715.29 1672075 41.440 108540.445 116000 1 5 1 0.922 3781620 9.091 8.711 44752896.000 342220800.000 1516547714.545 1516547712.914 78500 116000 216000 316000 616000 1216000
1516547715.39 1663737 41.200 108540.445 116000 1 5 1 0.922 3781620 0.000 8.711 44752896.000 342220800.000 1516547714.545 1516547712.914 78500 116000 216000 316000 616000 1216000
1516547715.50 1663737 41.200 108540.445 116000 1 5 1 0.922 3781620 10.000 8.711 44752896.000 342220800.000 1516547714.545 1516547712.914 78500 116000 216000 316000 616000 1216000
1516547715.60 1658219 41.120 108540.445 116000 1 5 1 0.922 3781620 0.000 8.711 44752896.000 342220800.000 1516547714.545 1516547712.914 78500 116000 216000 316000 616000 1216000
1516547715.70 1654379 40.960 108540.445 116000 1 5 1 0.922 3781620 0.000 8.711 44752896.000 342220800.000 1516547714.545 1516547712.914 78500 116000 216000 316000 616000 1216000
1516547715.80 1649752 40.800 108540.445 116000 1 5 1 0.922 3781620 0.000 8.711 44752896.000 342220800.000 1516547714.545 1516547712.914 78500 116000 216000 316000 616000 1216000
1516547715.91 1649752 40.800 108540.445 116000 1 5 1 0.922 3781620 0.000 8.711 44752896.000 342220800.000 1516547714.545 1516547712.914 78500 116000 216000 316000 616000 1216000
1516547716.01 1645179 40.640 108540.445 116000 1 5 1 0.922 3781620 10.000 8.711 44752896.000 342220800.000 1516547714.545 1516547712.914 78500 116000 216000 316000 616000 1216000
1516547716.11 1639672 40.480 108540.445 116000 1 5 1 0.922 3781620 0.000 8.711 44752896.000 342220800.000 1516547714.545 1516547712.914 78500 116000 216000 316000 616000 1216000
1516547716.21 1639672 40.480 108540.445 116000 1 5 1 0.922 3781620 0.000 8.711 44752896.000 342220800.000 1516547714.545 1516547712.914 78500 116000 216000 316000 616000 1216000
1516547716.31 1634037 40.320 108540.445 116000 1 5 1 0.922 3781620 0.000 8.711 44752896.000 342220800.000 1516547714.545 1516547712.914 78500 116000 216000 316000 616000 1216000
1516547716.41 1629172 40.160 108540.445 116000 1 5 1 0.922 3781620 0.000 8.711 44752896.000 342220800.000 1516547714.545 1516547712.914 78500 116000 216000 316000 616000 1216000
1516547716.52 1629172 40.160 108540.445 116000 1 5 1 0.922 3781620 10.000 8.711 44752896.000 342220800.000 1516547714.545 1516547712.914 78500 116000 216000 316000 616000 1216000
1516547716.62 1624620 40.000 108540.445 116000 1 5 1 0.922 3781620 20.000 8.711 44752896.000 342220800.000 1516547714.545 1516547712.914 78500 116000 216000 316000 616000 1216000
1516547716.72 1624620 40.000 108540.445 116000 1 5 1 0.922 3781620 0.000 8.711 44752896.000 342220800.000 1516547714.545 1516547712.914 78500 116000 216000 316000 616000 1216000
1516547716.83 1607223 39.880 108540.445 116000 1 5 1 0.922 3781620 0.000 8.711 44752896.000 342220800.000 1516547714.545 1516547712.914 78500 116000 216000 316000 616000 1216000
1516547716.93 1605237 39.720 108540.445 116000 1 5 1 0.922 3781620 0.000 8.711 44752896.000 342220800.000 1516547714.545 1516547712.914 78500 116000 216000 316000 616000 1216000
